;FLAVOR:Marlin
;TIME:12055
;Filament used: 20.2856m
;Layer height: 0.3
;MINX:11.793
;MINY:42.96
;MINZ:0.3
;MAXX:189.092
;MAXY:152.641
;MAXZ:19.8
;Generated with Cura_SteamEngine 4.8.0
M140 S60
M105
M190 S60
M82 ;absolute extrusion mode
M104 T0 S220
G28 ;Home extruder
G90 ;Absolute positioning
M82 ;Extruder in absolute mode
G1 Z1 F100
G92 E0 ;Reset extruder position
M109 T0 S220
G1 E20 F100
G92 E0 ;Reset extruder position
G92 E0
G92 E0
G1 F1500 E-6.5
;LAYER_COUNT:66
;LAYER:0
M107
;MESH:v6_base.stl
G0 F3600 X89.707 Y44.633 Z0.3
;TYPE:WALL-INNER
G1 F1500 E0
G1 F2400 X89.788 Y44.711 E0.00491
G1 X89.852 Y44.899 E0.01358
G1 X89.853 Y150.727 E4.63339
G1 X89.796 Y150.901 E4.64138
G1 X89.718 Y150.982 E4.64629
G1 X89.53 Y151.046 E4.65496
G1 X13.707 Y151.046 E7.96493
G1 X13.519 Y150.982 E7.9736
G1 X13.441 Y150.901 E7.97851
G1 X13.384 Y150.727 E7.9865
G1 X13.384 Y44.895 E12.60648
G1 X13.44 Y44.723 E12.61438
G1 X13.519 Y44.642 E12.61932
G1 X13.705 Y44.578 E12.62791
G1 X89.535 Y44.577 E15.93818
G1 X89.707 Y44.633 E15.94608
G0 F3600 X89.892 Y44.325
;TYPE:WALL-OUTER
G1 F2400 X90.092 Y44.518 E15.95821
G1 X90.202 Y44.842 E15.97315
G1 X90.203 Y150.784 E20.59793
G1 X90.104 Y151.086 E20.61181
G1 X89.912 Y151.285 E20.62388
G1 X89.587 Y151.396 E20.63887
G1 X13.649 Y151.396 E23.95386
G1 X13.325 Y151.285 E23.96881
G1 X13.133 Y151.086 E23.98088
G1 X13.034 Y150.784 E23.99476
G1 X13.034 Y44.838 E28.61972
G1 X13.132 Y44.538 E28.63349
G1 X13.325 Y44.338 E28.64563
G1 X13.648 Y44.228 E28.66052
G1 X89.592 Y44.227 E31.97578
G1 X89.892 Y44.325 E31.98955
G0 F3600 X90.018 Y44.446
G0 X89.484 Y44.917
;TYPE:SKIN
G1 F2400 X89.512 Y44.955 E31.99161
G1 X89.513 Y150.674 E36.60666
G1 X89.474 Y150.706 E36.60887
G1 X13.763 Y150.706 E39.91395
G1 X13.724 Y150.674 E39.91615
G1 X13.724 Y44.947 E44.53155
G1 X13.761 Y44.918 E44.5336
G1 X89.484 Y44.917 E47.83921
G0 F3600 X89.354 Y45.302
G1 F2400 X89.127 Y45.074 E47.85325
G0 F3600 X88.632 Y45.074
G1 F2400 X89.354 Y45.797 E47.89786
G0 F3600 X89.354 Y46.292
G1 F2400 X88.137 Y45.074 E47.97302
G0 F3600 X87.642 Y45.074
G1 F2400 X89.354 Y46.787 E48.07874
G0 F3600 X89.354 Y47.282
G1 F2400 X87.147 Y45.074 E48.21503
G0 F3600 X86.652 Y45.074
G1 F2400 X89.354 Y47.777 E48.38187
G0 F3600 X89.354 Y48.272
G1 F2400 X86.157 Y45.074 E48.57927
G0 F3600 X85.662 Y45.074
G1 F2400 X89.354 Y48.767 E48.80723
G0 F3600 X89.354 Y49.262
G1 F2400 X85.167 Y45.074 E49.06575
G0 F3600 X84.672 Y45.074
G1 F2400 X89.354 Y49.756 E49.3548
G0 F3600 X89.354 Y50.251
G1 F2400 X84.177 Y45.074 E49.6744
G0 F3600 X83.682 Y45.074
G1 F2400 X89.354 Y50.746 E50.02457
G0 F3600 X89.354 Y51.241
G1 F2400 X83.187 Y45.074 E50.4053
G0 F3600 X82.692 Y45.074
G1 F2400 X89.354 Y51.736 E50.81658
G0 F3600 X89.354 Y52.231
G1 F2400 X82.197 Y45.074 E51.25842
G0 F3600 X81.702 Y45.074
G1 F2400 X89.354 Y52.726 E51.73083
G0 F3600 X89.354 Y53.221
G1 F2400 X81.207 Y45.074 E52.23379
G0 F3600 X80.712 Y45.074
G1 F2400 X89.354 Y53.716 E52.76731
G0 F3600 X89.354 Y54.211
G1 F2400 X80.217 Y45.074 E53.3314
G0 F3600 X79.722 Y45.074
G1 F2400 X89.354 Y54.706 E53.92604
G0 F3600 X89.354 Y55.201
G1 F2400 X79.227 Y45.074 E54.55124
G0 F3600 X78.732 Y45.074
G1 F2400 X89.354 Y55.696 E55.207
G0 F3600 X89.354 Y56.191
G1 F2400 X78.237 Y45.074 E55.89332
G0 F3600 X77.742 Y45.074
G1 F2400 X89.354 Y56.686 E56.61019
G0 F3600 X89.354 Y57.181
G1 F2400 X77.247 Y45.074 E57.35763
G0 F3600 X76.752 Y45.074
G1 F2400 X89.354 Y57.676 E58.13563
G0 F3600 X89.354 Y58.171
G1 F2400 X76.257 Y45.074 E58.94418
G0 F3600 X75.762 Y45.074
G1 F2400 X89.354 Y58.666 E59.7833
G0 F3600 X89.354 Y59.161
G1 F2400 X75.267 Y45.074 E60.65297
G0 F3600 X74.773 Y45.074
G1 F2400 X89.354 Y59.656 E61.55318
G0 F3600 X89.354 Y60.151
G1 F2400 X74.278 Y45.074 E62.48394
G0 F3600 X73.783 Y45.074
G1 F2400 X89.354 Y60.646 E63.44526
G0 F3600 X89.354 Y61.141
G1 F2400 X73.288 Y45.074 E64.43714
G0 F3600 X72.793 Y45.074
G1 F2400 X89.354 Y61.636 E65.45958
G0 F3600 X89.354 Y62.131
G1 F2400 X72.298 Y45.074 E66.51258
G0 F3600 X71.803 Y45.074
G1 F2400 X89.354 Y62.626 E67.59614
G0 F3600 X89.354 Y63.121
G1 F2400 X71.308 Y45.074 E68.71026
G0 F3600 X70.813 Y45.074
G1 F2400 X89.354 Y63.616 E69.85494
G0 F3600 X89.354 Y64.111
G1 F2400 X70.318 Y45.074 E71.03017
G0 F3600 X69.823 Y45.074
G1 F2400 X89.354 Y64.606 E72.23597
G0 F3600 X89.354 Y65.101
G1 F2400 X69.328 Y45.074 E73.47233
G0 F3600 X68.833 Y45.074
G1 F2400 X89.354 Y65.596 E74.73924
G0 F3600 X89.354 Y66.091
G1 F2400 X68.338 Y45.074 E76.03671
G0 F3600 X67.843 Y45.074
G1 F2400 X89.354 Y66.586 E77.36475
G0 F3600 X89.354 Y67.081
G1 F2400 X67.348 Y45.074 E78.72334
G0 F3600 X66.853 Y45.074
G1 F2400 X89.354 Y67.576 E80.11249
G0 F3600 X89.354 Y68.071
G1 F2400 X66.358 Y45.074 E81.5322
G0 F3600 X65.863 Y45.074
G1 F2400 X89.354 Y68.566 E82.98247
G0 F3600 X89.354 Y69.06
G1 F2400 X65.368 Y45.074 E84.46327
G0 F3600 X64.873 Y45.074
G1 F2400 X89.354 Y69.555 E85.97463
G0 F3600 X89.354 Y70.05
G1 F2400 X64.378 Y45.074 E87.51655
G0 F3600 X63.883 Y45.074
G1 F2400 X89.354 Y70.545 E89.08903
G0 F3600 X89.354 Y71.04
G1 F2400 X63.388 Y45.074 E90.69206
G0 F3600 X62.893 Y45.074
G1 F2400 X89.354 Y71.535 E92.32566
G0 F3600 X89.354 Y72.03
G1 F2400 X62.398 Y45.074 E93.98981
G0 F3600 X61.903 Y45.074
G1 F2400 X89.354 Y72.525 E95.68453
G0 F3600 X89.354 Y73.02
G1 F2400 X61.408 Y45.074 E97.4098
G0 F3600 X60.913 Y45.074
G1 F2400 X89.354 Y73.515 E99.16563
G0 F3600 X89.354 Y74.01
G1 F2400 X60.418 Y45.074 E100.95203
G0 F3600 X59.923 Y45.074
G1 F2400 X89.354 Y74.505 E102.76898
G0 F3600 X89.354 Y75
G1 F2400 X59.428 Y45.074 E104.61649
G0 F3600 X58.933 Y45.074
G1 F2400 X89.354 Y75.495 E106.49456
G0 F3600 X89.354 Y75.99
G1 F2400 X58.438 Y45.074 E108.40319
G0 F3600 X57.943 Y45.074
G1 F2400 X89.354 Y76.485 E110.34238
G0 F3600 X89.354 Y76.98
G1 F2400 X57.448 Y45.074 E112.31213
G0 F3600 X56.953 Y45.074
G1 F2400 X89.354 Y77.475 E114.31243
G0 F3600 X89.354 Y77.97
G1 F2400 X56.458 Y45.074 E116.3433
G0 F3600 X55.963 Y45.074
G1 F2400 X89.354 Y78.465 E118.40473
G0 F3600 X89.354 Y78.96
G1 F2400 X55.468 Y45.074 E120.49671
G0 F3600 X54.974 Y45.074
G1 F2400 X89.354 Y79.455 E122.61922
G0 F3600 X89.354 Y79.95
G1 F2400 X54.479 Y45.074 E124.7723
G0 F3600 X53.984 Y45.074
G1 F2400 X89.355 Y80.446 E126.95599
G0 F3600 X89.355 Y80.941
G1 F2400 X53.489 Y45.074 E129.17025
G0 F3600 X52.994 Y45.074
G1 F2400 X89.355 Y81.436 E131.41506
G0 F3600 X89.355 Y81.931
G1 F2400 X52.499 Y45.074 E133.69043
G0 F3600 X52.004 Y45.074
G1 F2400 X89.355 Y82.426 E135.99636
G0 F3600 X89.355 Y82.92
G1 F2400 X51.509 Y45.074 E138.33282
G0 F3600 X51.014 Y45.074
G1 F2400 X89.355 Y83.415 E140.69984
G0 F3600 X89.355 Y83.91
G1 F2400 X50.519 Y45.074 E143.09742
G0 F3600 X50.024 Y45.074
G1 F2400 X89.355 Y84.405 E145.52556
G0 F3600 X89.355 Y84.9
G1 F2400 X49.529 Y45.074 E147.98425
G0 F3600 X49.034 Y45.074
G1 F2400 X89.355 Y85.395 E150.47351
G0 F3600 X89.355 Y85.89
G1 F2400 X48.539 Y45.074 E152.99332
G0 F3600 X48.044 Y45.074
G1 F2400 X89.355 Y86.385 E155.5437
G0 F3600 X89.355 Y86.88
G1 F2400 X47.549 Y45.074 E158.12463
G0 F3600 X47.054 Y45.074
G1 F2400 X89.355 Y87.375 E160.73613
G0 F3600 X89.355 Y87.87
G1 F2400 X46.559 Y45.074 E163.37818
G0 F3600 X46.064 Y45.074
G1 F2400 X89.355 Y88.365 E166.05079
G0 F3600 X89.355 Y88.86
G1 F2400 X45.569 Y45.074 E168.75396
G0 F3600 X45.074 Y45.074
G1 F2400 X89.355 Y89.355 E171.48769
G0 F3600 X89.355 Y89.85
G1 F2400 X44.579 Y45.074 E174.25198
G0 F3600 X44.084 Y45.074
G1 F2400 X89.355 Y90.345 E177.04683
G0 F3600 X89.355 Y90.84
G1 F2400 X43.589 Y45.074 E179.87224
G0 F3600 X43.094 Y45.074
G1 F2400 X89.355 Y91.335 E182.72821
G0 F3600 X89.355 Y91.83
G1 F2400 X42.599 Y45.074 E185.61474
G0 F3600 X42.104 Y45.074
G1 F2400 X89.355 Y92.325 E188.53182
G0 F3600 X89.355 Y92.82
G1 F2400 X41.609 Y45.074 E191.47947
G0 F3600 X41.114 Y45.074
G1 F2400 X89.355 Y93.315 E194.45768
G0 F3600 X89.355 Y93.81
G1 F2400 X40.619 Y45.074 E197.46644
G0 F3600 X40.124 Y45.074
G1 F2400 X89.355 Y94.305 E200.50576
G0 F3600 X89.355 Y94.8
G1 F2400 X39.629 Y45.074 E203.57565
G0 F3600 X39.134 Y45.074
G1 F2400 X89.355 Y95.295 E206.67609
G0 F3600 X89.355 Y95.79
G1 F2400 X38.639 Y45.074 E209.80709
G0 F3600 X38.144 Y45.074
G1 F2400 X89.355 Y96.285 E212.96865
G0 F3600 X89.355 Y96.78
G1 F2400 X37.649 Y45.074 E216.16077
G0 F3600 X37.154 Y45.074
G1 F2400 X89.355 Y97.275 E219.38345
G0 F3600 X89.355 Y97.77
G1 F2400 X36.659 Y45.074 E222.63669
G0 F3600 X36.164 Y45.074
G1 F2400 X89.355 Y98.265 E225.92049
G0 F3600 X89.355 Y98.76
G1 F2400 X35.67 Y45.074 E229.23482
G0 F3600 X35.175 Y45.074
G1 F2400 X89.355 Y99.255 E232.5797
G0 F3600 X89.355 Y99.75
G1 F2400 X34.68 Y45.074 E235.95515
G0 F3600 X34.185 Y45.074
G1 F2400 X89.355 Y100.245 E239.36115
G0 F3600 X89.355 Y100.74
G1 F2400 X33.69 Y45.074 E242.79772
G0 F3600 X33.195 Y45.074
G1 F2400 X89.355 Y101.235 E246.26484
G0 F3600 X89.355 Y101.73
G1 F2400 X32.7 Y45.074 E249.76252
G0 F3600 X32.205 Y45.074
G1 F2400 X89.355 Y102.225 E253.29076
G0 F3600 X89.355 Y102.719
G1 F2400 X31.71 Y45.074 E256.84953
G0 F3600 X31.215 Y45.074
G1 F2400 X89.355 Y103.214 E260.43886
G0 F3600 X89.355 Y103.709
G1 F2400 X30.72 Y45.074 E264.05875
G0 F3600 X30.225 Y45.074
G1 F2400 X89.355 Y104.204 E267.7092
G0 F3600 X89.355 Y104.699
G1 F2400 X29.73 Y45.074 E271.39021
G0 F3600 X29.235 Y45.074
G1 F2400 X89.355 Y105.194 E275.10178
G0 F3600 X89.355 Y105.689
G1 F2400 X28.74 Y45.074 E278.8439
G0 F3600 X28.245 Y45.074
G1 F2400 X89.355 Y106.184 E282.61659
G0 F3600 X89.355 Y106.679
G1 F2400 X27.75 Y45.074 E286.41983
G0 F3600 X27.255 Y45.074
G1 F2400 X89.355 Y107.174 E290.25364
G0 F3600 X89.355 Y107.669
G1 F2400 X26.76 Y45.074 E294.118
G0 F3600 X26.265 Y45.074
G1 F2400 X89.355 Y108.164 E298.01292
G0 F3600 X89.355 Y108.659
G1 F2400 X25.77 Y45.074 E301.9384
G0 F3600 X25.275 Y45.074
G1 F2400 X89.355 Y109.154 E305.89445
G0 F3600 X89.355 Y109.649
G1 F2400 X24.78 Y45.074 E309.88105
G0 F3600 X24.285 Y45.074
G1 F2400 X89.355 Y110.144 E313.89821
G0 F3600 X89.355 Y110.639
G1 F2400 X23.79 Y45.074 E317.94593
G0 F3600 X23.295 Y45.074
G1 F2400 X89.355 Y111.134 E322.0242
G0 F3600 X89.355 Y111.629
G1 F2400 X22.8 Y45.074 E326.13304
G0 F3600 X22.305 Y45.074
G1 F2400 X89.355 Y112.124 E330.27244
G0 F3600 X89.355 Y112.619
G1 F2400 X21.81 Y45.074 E334.4424
G0 F3600 X21.315 Y45.074
G1 F2400 X89.355 Y113.114 E338.64291
G0 F3600 X89.355 Y113.609
G1 F2400 X20.82 Y45.074 E342.87399
G0 F3600 X20.325 Y45.074
G1 F2400 X89.355 Y114.104 E347.13562
G0 F3600 X89.355 Y114.599
G1 F2400 X19.83 Y45.074 E351.42782
G0 F3600 X19.335 Y45.074
G1 F2400 X89.355 Y115.094 E355.75057
G0 F3600 X89.356 Y115.59
G1 F2400 X18.84 Y45.074 E360.10394
G0 F3600 X18.345 Y45.074
G1 F2400 X89.356 Y116.085 E364.48788
G0 F3600 X89.356 Y116.579
G1 F2400 X17.85 Y45.074 E368.90234
G0 F3600 X17.355 Y45.074
G1 F2400 X89.356 Y117.074 E373.34736
G0 F3600 X89.356 Y117.569
G1 F2400 X16.86 Y45.074 E377.82294
G0 F3600 X16.365 Y45.074
G1 F2400 X89.356 Y118.064 E382.32908
G0 F3600 X89.356 Y118.559
G1 F2400 X15.871 Y45.074 E386.86575
G0 F3600 X15.376 Y45.074
G1 F2400 X89.356 Y119.054 E391.43297
G0 F3600 X89.356 Y119.549
G1 F2400 X14.881 Y45.074 E396.03076
G0 F3600 X14.386 Y45.074
G1 F2400 X89.356 Y120.044 E400.65911
G0 F3600 X89.356 Y120.539
G1 F2400 X13.891 Y45.074 E405.31801
G0 F3600 X13.881 Y45.559
G1 F2400 X89.356 Y121.034 E409.97754
G0 F3600 X89.356 Y121.529
G1 F2400 X13.881 Y46.054 E414.63706
G0 F3600 X13.881 Y46.549
G1 F2400 X89.356 Y122.024 E419.29658
G0 F3600 X89.356 Y122.519
G1 F2400 X13.881 Y47.044 E423.9561
G0 F3600 X13.881 Y47.539
G1 F2400 X89.356 Y123.014 E428.61563
G0 F3600 X89.356 Y123.509
G1 F2400 X13.881 Y48.034 E433.27515
G0 F3600 X13.881 Y48.529
G1 F2400 X89.356 Y124.004 E437.93467
G0 F3600 X89.356 Y124.499
G1 F2400 X13.881 Y49.024 E442.5942
G0 F3600 X13.881 Y49.519
G1 F2400 X89.356 Y124.994 E447.25372
G0 F3600 X89.356 Y125.489
G1 F2400 X13.881 Y50.014 E451.91324
G0 F3600 X13.881 Y50.509
G1 F2400 X89.356 Y125.984 E456.57276
G0 F3600 X89.356 Y126.479
G1 F2400 X13.881 Y51.004 E461.23229
G0 F3600 X13.881 Y51.499
G1 F2400 X89.356 Y126.974 E465.89181
G0 F3600 X89.356 Y127.469
G1 F2400 X13.881 Y51.994 E470.55133
G0 F3600 X13.881 Y52.489
G1 F2400 X89.356 Y127.964 E475.21085
G0 F3600 X89.356 Y128.459
G1 F2400 X13.881 Y52.984 E479.87038
G0 F3600 X13.881 Y53.479
G1 F2400 X89.356 Y128.954 E484.5299
G0 F3600 X89.356 Y129.449
G1 F2400 X13.881 Y53.974 E489.18942
G0 F3600 X13.881 Y54.469
G1 F2400 X89.356 Y129.944 E493.84895
G0 F3600 X89.356 Y130.439
G1 F2400 X13.881 Y54.964 E498.50847
G0 F3600 X13.881 Y55.459
G1 F2400 X89.356 Y130.934 E503.16799
G0 F3600 X89.356 Y131.429
G1 F2400 X13.881 Y55.954 E507.82751
G0 F3600 X13.881 Y56.449
G1 F2400 X89.356 Y131.924 E512.48704
G0 F3600 X89.356 Y132.419
G1 F2400 X13.881 Y56.944 E517.14656
G0 F3600 X13.881 Y57.438
G1 F2400 X89.356 Y132.914 E521.80611
G0 F3600 X89.356 Y133.409
G1 F2400 X13.881 Y57.933 E526.46567
G0 F3600 X13.881 Y58.428
G1 F2400 X89.356 Y133.904 E531.12522
G0 F3600 X89.356 Y134.399
G1 F2400 X13.881 Y58.923 E535.78477
G0 F3600 X13.881 Y59.418
G1 F2400 X89.356 Y134.894 E540.44433
G0 F3600 X89.356 Y135.389
G1 F2400 X13.881 Y59.913 E545.10388
G0 F3600 X13.881 Y60.408
G1 F2400 X89.356 Y135.884 E549.76344
G0 F3600 X89.356 Y136.378
G1 F2400 X13.881 Y60.903 E554.42296
G0 F3600 X13.881 Y61.398
G1 F2400 X89.356 Y136.873 E559.08248
G0 F3600 X89.356 Y137.368
G1 F2400 X13.881 Y61.893 E563.742
G0 F3600 X13.881 Y62.388
G1 F2400 X89.356 Y137.863 E568.40153
G0 F3600 X89.356 Y138.358
G1 F2400 X13.881 Y62.883 E573.06105
G0 F3600 X13.881 Y63.378
G1 F2400 X89.356 Y138.853 E577.72057
G0 F3600 X89.356 Y139.348
G1 F2400 X13.881 Y63.873 E582.38009
G0 F3600 X13.881 Y64.368
G1 F2400 X89.356 Y139.843 E587.03962
G0 F3600 X89.356 Y140.338
G1 F2400 X13.881 Y64.863 E591.69914
G0 F3600 X13.881 Y65.358
G1 F2400 X89.356 Y140.833 E596.35866
G0 F3600 X89.356 Y141.328
G1 F2400 X13.881 Y65.853 E601.01819
G0 F3600 X13.881 Y66.348
G1 F2400 X89.356 Y141.823 E605.67771
G0 F3600 X89.356 Y142.318
G1 F2400 X13.881 Y66.843 E610.33723
G0 F3600 X13.881 Y67.338
G1 F2400 X89.356 Y142.813 E614.99675
G0 F3600 X89.356 Y143.308
G1 F2400 X13.881 Y67.833 E619.65628
G0 F3600 X13.881 Y68.328
G1 F2400 X89.356 Y143.803 E624.3158
G0 F3600 X89.356 Y144.298
G1 F2400 X13.881 Y68.823 E628.97532
G0 F3600 X13.881 Y69.318
G1 F2400 X89.356 Y144.793 E633.63485
G0 F3600 X89.356 Y145.288
G1 F2400 X13.881 Y69.813 E638.29437
G0 F3600 X13.881 Y70.308
G1 F2400 X89.356 Y145.783 E642.95389
G0 F3600 X89.356 Y146.278
G1 F2400 X13.881 Y70.803 E647.61341
G0 F3600 X13.881 Y71.298
G1 F2400 X89.356 Y146.773 E652.27294
G0 F3600 X89.356 Y147.268
G1 F2400 X13.881 Y71.793 E656.93246
G0 F3600 X13.881 Y72.288
G1 F2400 X89.356 Y147.763 E661.59198
G0 F3600 X89.356 Y148.258
G1 F2400 X13.881 Y72.783 E666.25151
G0 F3600 X13.881 Y73.278
G1 F2400 X89.356 Y148.753 E670.91103
G0 F3600 X89.356 Y149.248
G1 F2400 X13.881 Y73.773 E675.57055
G0 F3600 X13.881 Y74.268
G1 F2400 X89.356 Y149.743 E680.23007
G0 F3600 X89.356 Y150.238
G1 F2400 X13.881 Y74.763 E684.8896
G0 F3600 X13.881 Y75.258
G1 F2400 X89.171 Y150.547 E689.53767
G0 F3600 X88.676 Y150.547
G1 F2400 X13.881 Y75.753 E694.15518
G0 F3600 X13.881 Y76.248
G1 F2400 X88.181 Y150.547 E698.74213
G0 F3600 X87.686 Y150.547
G1 F2400 X13.881 Y76.743 E703.29852
G0 F3600 X13.881 Y77.237
G1 F2400 X87.191 Y150.547 E707.82439
G0 F3600 X86.696 Y150.547
G1 F2400 X13.881 Y77.732 E712.31969
G0 F3600 X13.881 Y78.227
G1 F2400 X86.201 Y150.547 E716.78444
G0 F3600 X85.706 Y150.547
G1 F2400 X13.881 Y78.722 E721.21863
G0 F3600 X13.881 Y79.217
G1 F2400 X85.211 Y150.547 E725.62225
G0 F3600 X84.716 Y150.547
G1 F2400 X13.881 Y79.712 E729.99532
G0 F3600 X13.881 Y80.207
G1 F2400 X84.221 Y150.547 E734.33783
G0 F3600 X83.726 Y150.547
G1 F2400 X13.881 Y80.702 E738.64978
G0 F3600 X13.881 Y81.197
G1 F2400 X83.231 Y150.547 E742.93117
G0 F3600 X82.736 Y150.547
G1 F2400 X13.881 Y81.692 E747.182
G0 F3600 X13.881 Y82.187
G1 F2400 X82.241 Y150.547 E751.40227
G0 F3600 X81.746 Y150.547
G1 F2400 X13.881 Y82.682 E755.59198
G0 F3600 X13.881 Y83.177
G1 F2400 X81.251 Y150.547 E759.75113
G0 F3600 X80.756 Y150.547
G1 F2400 X13.881 Y83.672 E763.87973
G0 F3600 X13.881 Y84.167
G1 F2400 X80.261 Y150.547 E767.97776
G0 F3600 X79.766 Y150.547
