;FLAVOR:Marlin
;TIME:9626
;Filament used: 16.2608m
;Layer height: 0.3
;MINX:14.816
;MINY:56.149
;MINZ:0.3
;MAXX:190.682
;MAXY:166.83
;MAXZ:12
;Generated with Cura_SteamEngine 4.8.0
M140 S60
M105
M190 S60
M82 ;absolute extrusion mode
M104 T0 S220
G28 ;Home extruder
G90 ;Absolute positioning
M82 ;Extruder in absolute mode
G1 Z1 F100
G92 E0 ;Reset extruder position
M109 T0 S220
G1 E20 F100
G92 E0 ;Reset extruder position
G92 E0
G92 E0
G1 F1500 E-6.5
;LAYER_COUNT:40
;LAYER:0
M107
;MESH:v6_couv.stl
G0 F3600 X16.258 Y57.388 Z0.3
;TYPE:WALL-OUTER
G1 F1500 E0
G1 F2400 X16.167 Y57.488 E0.0059
G1 X16.057 Y57.608 E0.01301
G1 X16.057 Y57.388 E0.01647
G1 X16.258 Y57.388 E0.01994
G0 F3600 X16.167 Y57.488
G0 X16.14 Y57.517
G1 F1500 E-6.48006
G0 F3600 X16.157 Y57.45
G0 X16.859 Y57.976
G0 X18.304 Y57.455
G0 X18.603 Y56.557
G0 X90.679 Y56.557
G0 X92.282 Y57.866
G0 X93.024 Y57.397
G0 X93.228 Y57.39
G1 F1500 E0.01994
G1 F2400 X93.228 Y57.59 E0.02867
G1 X93.129 Y57.501 E0.02923
G1 X93.006 Y57.39 E0.03285
G1 X93.228 Y57.39 E0.03631
G0 F3600 X93.228 Y57.565
G1 F1500 E-6.46369
G0 F3600 X93.128 Y57.493
G0 X92.632 Y58.183
G0 X90.443 Y60.68
G0 X89.884 Y61.555
G0 X16.666 Y160.056
;TYPE:WALL-INNER
G1 F1500 E0.03631
G1 F2400 X16.406 Y160.213 E0.04957
G1 X16.406 Y160.056 E0.05084
G1 X16.406 Y159.995 E0.05351
G1 X16.406 Y61.986 E4.33198
G1 X16.406 Y61.985 E4.33203
G1 X16.406 Y61.691 E4.34486
G1 X16.664 Y61.832 E4.35218
G1 X16.835 Y61.926 E4.3607
G1 X17.425 Y62.095 E4.38749
G1 X17.987 Y62.141 E4.41211
G1 X18.548 Y62.075 E4.43677
G1 X19.084 Y61.9 E4.46138
G1 X19.575 Y61.626 E4.48593
G1 X20.004 Y61.26 E4.51055
G1 X20.353 Y60.819 E4.5351
G1 X20.611 Y60.316 E4.55977
G1 X20.762 Y59.774 E4.58433
G1 X20.808 Y59.214 E4.60886
G1 X20.742 Y58.658 E4.63331
G1 X20.591 Y58.162 E4.65594
G1 X20.5 Y57.998 E4.66413
G1 X20.357 Y57.739 E4.67704
G1 X20.652 Y57.739 E4.68438
G1 X20.653 Y57.739 E4.68442
G1 X88.631 Y57.739 E7.65193
G1 X88.632 Y57.739 E7.65197
G1 X88.917 Y57.739 E7.66441
G1 X88.787 Y57.993 E7.67156
G1 X88.672 Y58.217 E7.68255
G1 X88.521 Y58.759 E7.70711
G1 X88.475 Y59.32 E7.73168
G1 X88.541 Y59.879 E7.75625
G1 X88.714 Y60.416 E7.78088
G1 X88.989 Y60.909 E7.80553
G1 X89.355 Y61.337 E7.83011
G1 X89.797 Y61.685 E7.85467
G1 X90.298 Y61.942 E7.87925
G1 X90.841 Y62.095 E7.90387
G1 X91.403 Y62.141 E7.92849
G1 X91.957 Y62.075 E7.95285
G1 X92.454 Y61.923 E7.97553
G1 X92.618 Y61.832 E7.98372
G1 X92.877 Y61.689 E7.99664
G1 X92.877 Y61.984 E8.00397
G1 X92.877 Y61.985 E8.00401
G1 X92.878 Y159.981 E12.28192
G1 X92.878 Y159.982 E12.28197
G1 X92.878 Y160.276 E12.2948
G1 X92.619 Y160.135 E12.30214
G1 X92.428 Y160.03 E12.31165
G1 X91.836 Y159.866 E12.33847
G1 X91.274 Y159.825 E12.36307
G1 X90.718 Y159.895 E12.38753
G1 X90.185 Y160.07 E12.41202
G1 X89.697 Y160.346 E12.43649
G1 X89.272 Y160.713 E12.46101
G1 X88.926 Y161.153 E12.48544
G1 X88.671 Y161.653 E12.50994
G1 X88.52 Y162.193 E12.53442
G1 X88.475 Y162.753 E12.55895
G1 X88.54 Y163.309 E12.58338
G1 X88.713 Y163.846 E12.60801
G1 X88.772 Y163.948 E12.61315
G1 X88.921 Y164.209 E12.62627
G1 X88.621 Y164.209 E12.63371
G1 X88.62 Y164.209 E12.63375
G1 X20.525 Y164.208 E15.60636
G1 X20.524 Y164.208 E15.60641
G1 X20.239 Y164.208 E15.61885
G1 X20.37 Y163.954 E15.626
G1 X20.478 Y163.744 E15.6363
G1 X20.628 Y163.204 E15.66077
G1 X20.674 Y162.646 E15.68521
G1 X20.608 Y162.088 E15.70974
G1 X20.436 Y161.554 E15.73423
G1 X20.164 Y161.064 E15.7587
G1 X19.801 Y160.635 E15.78323
G1 X19.361 Y160.286 E15.80774
G1 X18.864 Y160.029 E15.83217
G1 X18.325 Y159.873 E15.85666
G1 X17.768 Y159.825 E15.88107
G1 X17.209 Y159.887 E15.90562
G1 X16.724 Y160.038 E15.9278
G1 X16.666 Y160.056 E15.92977
G0 F3600 X16.199 Y160.746
;TYPE:WALL-OUTER
G1 F2400 X16.056 Y160.897 E15.93885
G1 X16.056 Y160.746 E15.93964
G1 X16.056 Y160.563 E15.94763
G1 X16.056 Y61.339 E20.27914
G1 X16.056 Y60.975 E20.29503
G1 X16.056 Y60.949 E20.29617
G1 X16.075 Y60.975 E20.2964
G1 X16.349 Y61.214 E20.30543
G1 X16.488 Y61.336 E20.3135
G1 X16.969 Y61.6 E20.33745
G1 X17.488 Y61.749 E20.36103
G1 X17.981 Y61.789 E20.38262
G1 X18.473 Y61.731 E20.40424
G1 X18.943 Y61.578 E20.42582
G1 X19.374 Y61.337 E20.44738
G1 X19.751 Y61.016 E20.46899
G1 X20.057 Y60.629 E20.49053
G1 X20.283 Y60.188 E20.51216
G1 X20.416 Y59.712 E20.53374
G1 X20.456 Y59.22 E20.55529
G1 X20.398 Y58.73 E20.57683
G1 X20.267 Y58.299 E20.59649
G1 X20.006 Y57.827 E20.62004
G1 X19.872 Y57.681 E20.62869
G1 X19.603 Y57.389 E20.64602
G1 X20 Y57.389 E20.65541
G1 X20.001 Y57.389 E20.65546
G1 X89.293 Y57.389 E23.68033
G1 X89.575 Y57.389 E23.69264
G1 X89.68 Y57.389 E23.69722
G1 X89.575 Y57.468 E23.69861
G1 X89.399 Y57.688 E23.7066
G1 X89.226 Y57.903 E23.71865
G1 X89 Y58.345 E23.74032
G1 X88.867 Y58.821 E23.76189
G1 X88.827 Y59.314 E23.78349
G1 X88.885 Y59.804 E23.80503
G1 X89.037 Y60.276 E23.82667
G1 X89.278 Y60.708 E23.84827
G1 X89.599 Y61.083 E23.86982
G1 X89.987 Y61.389 E23.89139
G1 X90.427 Y61.615 E23.91298
G1 X90.903 Y61.749 E23.93457
G1 X91.396 Y61.789 E23.95616
G1 X91.885 Y61.731 E23.97766
G1 X92.316 Y61.599 E23.99733
G1 X92.789 Y61.337 E24.02094
G1 X92.938 Y61.206 E24.0296
G1 X93.227 Y60.952 E24.04639
G1 X93.227 Y61.336 E24.05552
G1 X93.227 Y61.338 E24.05561
G1 X93.227 Y160.628 E28.39
G1 X93.227 Y160.979 E28.40533
G1 X93.228 Y161.021 E28.40716
G1 X93.198 Y160.98 E28.40751
G1 X92.933 Y160.75 E28.41642
G1 X92.789 Y160.626 E28.42472
G1 X92.296 Y160.357 E28.44924
G1 X91.776 Y160.213 E28.47279
G1 X91.283 Y160.177 E28.49437
G1 X90.795 Y160.238 E28.51584
G1 X90.327 Y160.392 E28.53735
G1 X89.899 Y160.634 E28.55881
G1 X89.526 Y160.956 E28.58032
G1 X89.222 Y161.342 E28.60177
G1 X88.999 Y161.781 E28.62326
G1 X88.866 Y162.255 E28.64475
G1 X88.827 Y162.746 E28.66626
G1 X88.884 Y163.234 E28.6877
G1 X89.035 Y163.704 E28.70925
G1 X89.303 Y164.173 E28.73283
G1 X89.388 Y164.268 E28.7384
G1 X89.65 Y164.559 E28.75549
G1 X89.259 Y164.559 E28.76477
G1 X89.258 Y164.559 E28.76481
G1 X19.881 Y164.558 E31.79339
G1 X19.88 Y164.558 E31.79344
G1 X19.491 Y164.558 E31.81042
G1 X19.75 Y164.267 E31.81966
G1 X19.904 Y164.094 E31.82977
G1 X20.15 Y163.616 E31.85324
G1 X20.282 Y163.142 E31.87472
G1 X20.322 Y162.652 E31.89618
G1 X20.264 Y162.163 E31.91768
G1 X20.113 Y161.694 E31.93919
G1 X19.875 Y161.264 E31.96064
G1 X19.556 Y160.888 E31.98217
G1 X19.17 Y160.581 E32.0037
G1 X18.734 Y160.356 E32.02512
G1 X18.261 Y160.219 E32.04661
G1 X17.772 Y160.177 E32.06804
G1 X17.281 Y160.231 E32.0896
G1 X16.81 Y160.378 E32.11114
G1 X16.355 Y160.652 E32.13433
G1 X16.199 Y160.746 E32.14023
G0 F3600 X16.079 Y160.873
G1 F1500 E25.64023
G0 F3600 X16.106 Y160.753
G0 X16.13 Y162.889
G0 X16.36 Y163.599
G0 X16.862 Y164.207
G0 X16.915 Y164.123
G1 F1500 E32.14023
G1 F2400 X17.141 Y164.213 E32.15085
G1 X17.453 Y164.337 E32.16551
G1 X17.799 Y164.375 E32.1807
G1 X18.134 Y164.342 E32.1954
G1 X18.465 Y164.213 E32.2109
G1 X18.519 Y164.192 E32.21343
G1 X18.611 Y164.341 E32.22108
G1 X18.745 Y164.558 E32.23221
G1 X18.49 Y164.558 E32.23849
G1 X18.134 Y164.558 E32.25111
G1 X17.799 Y164.558 E32.25944
G1 X17.453 Y164.558 E32.26815
G1 X17.117 Y164.558 E32.28017
G1 X16.671 Y164.558 E32.29964
G1 X16.347 Y164.448 E32.31457
G1 X16.157 Y164.25 E32.32655
G1 X16.057 Y163.946 E32.34052
G1 X16.057 Y163.622 E32.35467
G1 X16.057 Y163.344 E32.3668
G1 X16.057 Y162.874 E32.38732
G1 X16.142 Y162.874 E32.39103
G1 X16.253 Y163.344 E32.39973
G1 X16.395 Y163.582 E32.40926
G1 X16.501 Y163.759 E32.41826
G1 X16.915 Y164.123 E32.44233
G0 F3600 X17.077 Y164.187
G1 F1500 E25.94233
G0 F3600 X17.039 Y164.278
G0 X18.728 Y164.549
G0 X19.174 Y163.688
G0 X89.974 Y163.687
G0 X90.42 Y164.55
G0 X91.448 Y164.413
G0 X92.268 Y164.219
G0 X92.217 Y164.133
G1 F1500 E32.44233
G1 F2400 X92.534 Y163.883 E32.45995
G1 X92.793 Y163.549 E32.4784
G1 X92.881 Y163.321 E32.48907
G1 X92.991 Y163.032 E32.50257
G1 X93.007 Y162.874 E32.5095
G1 X93.226 Y162.874 E32.51906
G1 X93.226 Y163.032 E32.52354
G1 X93.226 Y163.342 E32.53489
G1 X93.226 Y163.946 E32.56125
G1 X93.126 Y164.25 E32.57522
G1 X92.938 Y164.446 E32.58708
G1 X92.574 Y164.558 E32.6037
G1 X92.251 Y164.56 E32.6178
G1 X92.032 Y164.56 E32.62736
G1 X91.682 Y164.56 E32.64264
G1 X91.348 Y164.56 E32.65722
G1 X91.003 Y164.56 E32.67228
G1 X90.666 Y164.56 E32.687
G1 X90.403 Y164.559 E32.69848
G1 X90.541 Y164.335 E32.70496
G1 X90.631 Y164.191 E32.71238
G1 X90.689 Y164.214 E32.7151
G1 X91.003 Y164.337 E32.7272
G1 X91.348 Y164.375 E32.73606
G1 X91.682 Y164.342 E32.74451
G1 X92.008 Y164.215 E32.75695
G1 X92.217 Y164.133 E32.76675
G0 F3600 X92.354 Y164.025
G1 F1500 E26.26675
G0 F3600 X92.416 Y164.105
G0 X90.42 Y164.55
G0 X89.631 Y164.551
G0 X88.363 Y163.869
;TYPE:SKIN
G1 F1500 E32.76675
G1 F2400 X20.796 Y163.868 E35.71631
G1 X20.964 Y163.264 E35.74368
G1 X21.016 Y162.64 E35.77102
G1 X20.942 Y162.016 E35.79845
G1 X20.749 Y161.418 E35.82588
G1 X20.445 Y160.87 E35.85323
G1 X20.038 Y160.39 E35.88071
G1 X19.546 Y159.999 E35.90814
G1 X18.99 Y159.712 E35.93546
G1 X18.387 Y159.537 E35.96286
G1 X17.764 Y159.483 E35.99016
G1 X17.139 Y159.553 E36.01762
G1 X16.746 Y159.675 E36.03558
G1 X16.746 Y62.255 E40.28835
G1 X17.363 Y62.431 E40.31636
G1 X17.993 Y62.483 E40.34395
G1 X18.622 Y62.409 E40.3716
G1 X19.221 Y62.213 E40.39911
G1 X19.77 Y61.906 E40.42657
G1 X20.25 Y61.497 E40.4541
G1 X20.64 Y61.004 E40.48154
G1 X20.929 Y60.44 E40.50921
G1 X21.098 Y59.834 E40.53667
G1 X21.15 Y59.208 E40.56409
G1 X21.076 Y58.588 E40.59135
G1 X20.921 Y58.079 E40.61458
G1 X88.36 Y58.079 E43.55855
G1 X88.353 Y58.093 E43.55924
G1 X88.185 Y58.699 E43.58669
G1 X88.133 Y59.326 E43.61415
G1 X88.207 Y59.951 E43.64163
G1 X88.401 Y60.552 E43.6692
G1 X88.709 Y61.104 E43.69679
G1 X89.118 Y61.584 E43.72432
G1 X89.612 Y61.973 E43.75177
G1 X90.173 Y62.26 E43.77928
G1 X90.781 Y62.431 E43.80685
G1 X91.409 Y62.483 E43.83436
G1 X92.027 Y62.409 E43.86153
G1 X92.537 Y62.254 E43.8848
G1 X92.538 Y159.708 E48.13905
G1 X91.894 Y159.53 E48.16821
G1 X91.265 Y159.483 E48.19575
G1 X90.643 Y159.561 E48.22311
G1 X90.047 Y159.757 E48.2505
G1 X89.5 Y160.066 E48.27793
G1 X89.025 Y160.478 E48.30538
G1 X88.638 Y160.969 E48.33267
G1 X88.353 Y161.529 E48.3601
G1 X88.184 Y162.133 E48.38748
G1 X88.133 Y162.759 E48.4149
G1 X88.206 Y163.381 E48.44223
G1 X88.363 Y163.869 E48.46461
G0 F3600 X21.036 Y163.589
G1 F2400 X21.157 Y163.71 E48.47208
G0 F3600 X21.652 Y163.71
G1 F2400 X21.126 Y163.184 E48.50456
G0 F3600 X21.165 Y162.728
G1 F2400 X22.147 Y163.71 E48.56518
G0 F3600 X22.642 Y163.71
G1 F2400 X21.12 Y162.188 E48.65914
G0 F3600 X20.945 Y161.518
G1 F2400 X23.137 Y163.71 E48.79447
G0 F3600 X23.632 Y163.71
G1 F2400 X16.902 Y156.98 E49.20995
G0 F3600 X16.902 Y156.485
G1 F2400 X24.127 Y163.71 E49.65599
G0 F3600 X24.622 Y163.71
G1 F2400 X16.902 Y155.99 E50.1326
G0 F3600 X16.902 Y155.495
G1 F2400 X25.117 Y163.71 E50.63976
G0 F3600 X25.612 Y163.71
G1 F2400 X16.902 Y155 E51.17748
G0 F3600 X16.902 Y154.505
G1 F2400 X26.107 Y163.71 E51.74576
G0 F3600 X26.602 Y163.71
G1 F2400 X16.902 Y154.01 E52.3446
G0 F3600 X16.902 Y153.515
G1 F2400 X27.097 Y163.71 E52.97399
G0 F3600 X27.592 Y163.71
G1 F2400 X16.902 Y153.02 E53.63395
G0 F3600 X16.902 Y152.525
G1 F2400 X28.086 Y163.71 E54.32444
G0 F3600 X28.581 Y163.71
G1 F2400 X16.902 Y152.03 E55.04548
G0 F3600 X16.902 Y151.535
G1 F2400 X29.076 Y163.71 E55.79709
G0 F3600 X29.571 Y163.71
G1 F2400 X16.902 Y151.04 E56.57925
G0 F3600 X16.902 Y150.545
G1 F2400 X30.066 Y163.71 E57.39197
G0 F3600 X30.561 Y163.71
G1 F2400 X16.902 Y150.05 E58.23526
G0 F3600 X16.902 Y149.555
G1 F2400 X31.056 Y163.71 E59.1091
G0 F3600 X31.551 Y163.71
G1 F2400 X16.902 Y149.06 E60.0135
G0 F3600 X16.902 Y148.565
G1 F2400 X32.046 Y163.71 E60.94846
G0 F3600 X32.541 Y163.71
G1 F2400 X16.902 Y148.07 E61.91398
G0 F3600 X16.902 Y147.576
G1 F2400 X33.036 Y163.71 E62.91003
G0 F3600 X33.531 Y163.71
G1 F2400 X16.902 Y147.081 E63.93664
G0 F3600 X16.902 Y146.586
G1 F2400 X34.026 Y163.71 E64.9938
G0 F3600 X34.521 Y163.71
G1 F2400 X16.902 Y146.091 E66.08153
G0 F3600 X16.902 Y145.596
G1 F2400 X35.016 Y163.71 E67.19981
G0 F3600 X35.511 Y163.71
G1 F2400 X16.902 Y145.101 E68.34866
G0 F3600 X16.902 Y144.606
G1 F2400 X36.006 Y163.71 E69.52806
G0 F3600 X36.501 Y163.71
G1 F2400 X16.902 Y144.111 E70.73803
G0 F3600 X16.902 Y143.616
G1 F2400 X36.996 Y163.71 E71.97855
G0 F3600 X37.491 Y163.71
G1 F2400 X16.902 Y143.121 E73.24963
G0 F3600 X16.902 Y142.626
G1 F2400 X37.986 Y163.71 E74.55127
G0 F3600 X38.481 Y163.71
G1 F2400 X16.902 Y142.131 E75.88347
G0 F3600 X16.902 Y141.636
G1 F2400 X38.976 Y163.71 E77.24623
G0 F3600 X39.471 Y163.71
G1 F2400 X16.902 Y141.141 E78.63955
G0 F3600 X16.902 Y140.646
G1 F2400 X39.966 Y163.71 E80.06343
G0 F3600 X40.461 Y163.71
G1 F2400 X16.902 Y140.151 E81.51787
G0 F3600 X16.902 Y139.656
G1 F2400 X40.956 Y163.71 E83.00287
G0 F3600 X41.451 Y163.71
G1 F2400 X16.902 Y139.161 E84.51842
G0 F3600 X16.902 Y138.666
G1 F2400 X41.946 Y163.71 E86.06454
G0 F3600 X42.441 Y163.71
G1 F2400 X16.902 Y138.171 E87.64121
G0 F3600 X16.902 Y137.676
G1 F2400 X42.936 Y163.71 E89.24845
G0 F3600 X43.431 Y163.71
G1 F2400 X16.902 Y137.181 E90.88624
G0 F3600 X16.902 Y136.686
G1 F2400 X43.926 Y163.71 E92.5546
G0 F3600 X44.421 Y163.71
G1 F2400 X16.902 Y136.191 E94.25351
G0 F3600 X16.902 Y135.696
G1 F2400 X44.916 Y163.71 E95.98298
G0 F3600 X45.411 Y163.71
G1 F2400 X16.902 Y135.201 E97.74301
G0 F3600 X16.902 Y134.706
G1 F2400 X45.906 Y163.71 E99.5336
G0 F3600 X46.401 Y163.71
G1 F2400 X16.902 Y134.211 E101.35475
G0 F3600 X16.902 Y133.716
G1 F2400 X46.896 Y163.71 E103.20646
G0 F3600 X47.391 Y163.71
G1 F2400 X16.902 Y133.221 E105.08873
G0 F3600 X16.902 Y132.726
G1 F2400 X47.885 Y163.71 E107.00152
G0 F3600 X48.38 Y163.71
G1 F2400 X16.902 Y132.231 E108.94488
G0 F3600 X16.902 Y131.736
G1 F2400 X48.875 Y163.71 E110.91879
G0 F3600 X49.37 Y163.71
G1 F2400 X16.902 Y131.241 E112.92327
G0 F3600 X16.902 Y130.746
G1 F2400 X49.865 Y163.71 E114.9583
G0 F3600 X50.36 Y163.71
G1 F2400 X16.902 Y130.251 E117.0239
G0 F3600 X16.902 Y129.756
G1 F2400 X50.855 Y163.71 E119.12005
G0 F3600 X51.35 Y163.71
G1 F2400 X16.902 Y129.261 E121.24676
G0 F3600 X16.902 Y128.766
G1 F2400 X51.845 Y163.71 E123.40403
G0 F3600 X52.34 Y163.71
G1 F2400 X16.902 Y128.271 E125.59186
G0 F3600 X16.902 Y127.777
G1 F2400 X52.835 Y163.71 E127.81022
G0 F3600 X53.33 Y163.71
G1 F2400 X16.902 Y127.282 E130.05914
G0 F3600 X16.902 Y126.787
G1 F2400 X53.825 Y163.71 E132.33862
G0 F3600 X54.32 Y163.71
G1 F2400 X16.902 Y126.292 E134.64865
G0 F3600 X16.902 Y125.797
G1 F2400 X54.815 Y163.71 E136.98925
G0 F3600 X55.31 Y163.71
G1 F2400 X16.902 Y125.302 E139.3604
G0 F3600 X16.902 Y124.807
G1 F2400 X55.805 Y163.71 E141.76212
G0 F3600 X56.3 Y163.71
G1 F2400 X16.902 Y124.312 E144.19439
G0 F3600 X16.902 Y123.817
G1 F2400 X56.795 Y163.71 E146.65723
G0 F3600 X57.29 Y163.71
G1 F2400 X16.902 Y123.322 E149.15062
G0 F3600 X16.902 Y122.827
G1 F2400 X57.785 Y163.71 E151.67457
G0 F3600 X58.28 Y163.71
G1 F2400 X16.902 Y122.332 E154.22908
G0 F3600 X16.902 Y121.837
G1 F2400 X58.775 Y163.71 E156.81415
G0 F3600 X59.27 Y163.71
G1 F2400 X16.902 Y121.342 E159.42978
G0 F3600 X16.902 Y120.847
G1 F2400 X59.765 Y163.71 E162.07597
G0 F3600 X60.26 Y163.71
G1 F2400 X16.902 Y120.352 E164.75272
G0 F3600 X16.902 Y119.857
G1 F2400 X60.755 Y163.71 E167.46003
G0 F3600 X61.25 Y163.71
G1 F2400 X16.902 Y119.362 E170.19789
G0 F3600 X16.902 Y118.867
G1 F2400 X61.745 Y163.71 E172.96632
G0 F3600 X62.24 Y163.71
G1 F2400 X16.902 Y118.372 E175.76531
G0 F3600 X16.902 Y117.877
G1 F2400 X62.735 Y163.71 E178.59485
G0 F3600 X63.23 Y163.71
G1 F2400 X16.902 Y117.382 E181.45496
G0 F3600 X16.902 Y116.887
G1 F2400 X63.725 Y163.71 E184.34562
G0 F3600 X64.22 Y163.71
G1 F2400 X16.902 Y116.392 E187.26684
G0 F3600 X16.902 Y115.897
G1 F2400 X64.715 Y163.71 E190.21862
G0 F3600 X65.21 Y163.71
G1 F2400 X16.902 Y115.402 E193.20097
G0 F3600 X16.902 Y114.907
G1 F2400 X65.705 Y163.71 E196.21387
G0 F3600 X66.2 Y163.71
G1 F2400 X16.902 Y114.412 E199.25733
G0 F3600 X16.902 Y113.917
G1 F2400 X66.695 Y163.71 E202.33135
G0 F3600 X67.189 Y163.71
G1 F2400 X16.902 Y113.422 E205.43589
G0 F3600 X16.902 Y112.927
G1 F2400 X67.684 Y163.71 E208.571
G0 F3600 X68.179 Y163.71
G1 F2400 X16.902 Y112.432 E211.73667
G0 F3600 X16.902 Y111.937
