;FLAVOR:Marlin
;TIME:4792
;Filament used: 8.14625m
;Layer height: 0.3
;MINX:43.064
;MINY:58.065
;MINZ:0.3
;MAXX:156.935
;MAXY:141.936
;MAXZ:12
;Generated with Cura_SteamEngine 4.8.0
M140 S60
M105
M190 S60
M82 ;absolute extrusion mode
M104 T0 S220
G28 ;Home extruder
G90 ;Absolute positioning
M82 ;Extruder in absolute mode
G1 Z1 F100
G92 E0 ;Reset extruder position
M109 T0 S220
G1 E20 F100
G92 E0 ;Reset extruder position
G92 E0
G92 E0
G1 F1500 E-6.5
;LAYER_COUNT:40
;LAYER:0
M107
G0 F3600 X44.853 Y58.744 Z0.3
;TYPE:SKIRT
G1 F1500 E0
G1 F2400 X45.291 Y58.495 E0.02199
G1 X45.796 Y58.301 E0.04561
G1 X46.032 Y58.227 E0.05641
G1 X46.523 Y58.115 E0.07839
G1 X46.926 Y58.082 E0.09604
G1 X47.896 Y58.066 E0.13839
G1 X149.954 Y58.065 E4.59363
G1 X150.53 Y58.073 E4.61877
G1 X153.399 Y58.069 E4.74402
G1 X153.798 Y58.075 E4.76144
G1 X154.299 Y58.123 E4.78341
G1 X154.787 Y58.249 E4.80541
G1 X155.248 Y58.451 E4.82738
G1 X155.672 Y58.723 E4.84937
G1 X156.047 Y59.058 E4.87132
G1 X156.365 Y59.449 E4.89332
G1 X156.617 Y59.885 E4.91531
G1 X156.796 Y60.356 E4.9373
G1 X156.9 Y60.849 E4.9593
G1 X156.933 Y61.516 E4.98845
G1 X156.928 Y62.014 E5.01019
G1 X156.935 Y64.731 E5.1288
G1 X156.935 Y134.858 E8.19012
G1 X156.925 Y135.55 E8.22033
G1 X156.933 Y138.219 E8.33684
G1 X156.925 Y138.793 E8.3619
G1 X156.878 Y139.295 E8.38391
G1 X156.752 Y139.782 E8.40587
G1 X156.551 Y140.244 E8.42787
G1 X156.279 Y140.668 E8.44986
G1 X155.944 Y141.044 E8.47184
G1 X155.554 Y141.362 E8.49381
G1 X155.118 Y141.614 E8.51579
G1 X154.648 Y141.794 E8.53776
G1 X154.155 Y141.898 E8.55976
G1 X153.647 Y141.93 E8.58198
G1 X150.096 Y141.931 E8.73699
G1 X149.794 Y141.935 E8.75018
G1 X49.406 Y141.936 E13.13251
G1 X48.183 Y141.932 E13.1859
G1 X47.661 Y141.934 E13.20868
G1 X46.971 Y141.924 E13.23881
G1 X46.47 Y141.876 E13.26078
G1 X45.771 Y141.688 E13.29238
G1 X45.303 Y141.502 E13.31436
G1 X44.954 Y141.305 E13.33186
G1 X44.359 Y140.847 E13.36463
G1 X44.162 Y140.654 E13.37667
G1 X43.831 Y140.274 E13.39867
G1 X43.565 Y139.847 E13.42063
G1 X43.329 Y139.265 E13.44805
G1 X43.218 Y138.901 E13.46466
G1 X43.113 Y138.408 E13.48667
G1 X43.088 Y138.079 E13.50107
G1 X43.064 Y137.087 E13.54439
G1 X43.066 Y62.617 E16.79529
G1 X43.077 Y61.946 E16.82459
G1 X43.126 Y61.445 E16.84657
G1 X43.26 Y60.927 E16.86992
G1 X43.392 Y60.549 E16.8874
G1 X43.599 Y60.089 E16.90942
G1 X43.875 Y59.668 E16.9314
G1 X44.274 Y59.234 E16.95713
G1 X44.46 Y59.059 E16.96828
G1 X44.853 Y58.744 E16.99027
G1 F1500 E10.49027
;MESH:v6_couv.stl
G0 F3600 X50.097 Y60.575
G0 X50.097 Y61.422
G0 X50.918 Y62.025
;TYPE:WALL-INNER
G1 F1500 E16.99027
G1 F2400 X50.761 Y61.765 E17.00353
G1 X50.918 Y61.765 E17.0048
G1 X50.979 Y61.765 E17.00746
G1 X148.987 Y61.765 E21.28589
G1 X148.988 Y61.765 E21.28594
G1 X149.283 Y61.765 E21.29881
G1 X149.14 Y62.024 E21.30617
G1 X149.047 Y62.193 E21.31459
G1 X148.879 Y62.784 E21.34141
G1 X148.833 Y63.346 E21.36603
G1 X148.899 Y63.906 E21.39064
G1 X149.073 Y64.443 E21.41529
G1 X149.347 Y64.934 E21.43983
G1 X149.713 Y65.363 E21.46445
G1 X150.155 Y65.712 E21.48903
G1 X150.657 Y65.968 E21.51363
G1 X151.199 Y66.121 E21.53822
G1 X151.76 Y66.167 E21.56279
G1 X152.316 Y66.101 E21.58723
G1 X152.812 Y65.95 E21.60986
G1 X152.976 Y65.859 E21.61805
G1 X153.235 Y65.716 E21.63097
G1 X153.235 Y66.011 E21.6383
G1 X153.235 Y66.012 E21.63835
G1 X153.235 Y133.988 E24.60576
G1 X153.235 Y133.989 E24.60581
G1 X153.235 Y134.285 E24.61873
G1 X152.976 Y134.141 E24.62609
G1 X152.808 Y134.047 E24.6345
G1 X152.216 Y133.879 E24.66136
G1 X151.654 Y133.833 E24.68598
G1 X151.094 Y133.899 E24.71059
G1 X150.557 Y134.073 E24.73523
G1 X150.066 Y134.347 E24.75978
G1 X149.637 Y134.713 E24.7844
G1 X149.288 Y135.155 E24.80898
G1 X149.032 Y135.657 E24.83358
G1 X148.879 Y136.199 E24.85817
G1 X148.833 Y136.76 E24.88274
G1 X148.899 Y137.316 E24.90718
G1 X149.05 Y137.812 E24.92981
G1 X149.141 Y137.976 E24.938
G1 X149.284 Y138.235 E24.95092
G1 X148.989 Y138.235 E24.95825
G1 X148.988 Y138.235 E24.95829
G1 X50.993 Y138.236 E29.23616
G1 X50.992 Y138.236 E29.2362
G1 X50.699 Y138.236 E29.24899
G1 X50.839 Y137.978 E29.2563
G1 X50.944 Y137.786 E29.26585
G1 X51.108 Y137.194 E29.29267
G1 X51.149 Y136.632 E29.31727
G1 X51.079 Y136.076 E29.34173
G1 X50.904 Y135.542 E29.36626
G1 X50.627 Y135.055 E29.39072
G1 X50.262 Y134.631 E29.41514
G1 X49.821 Y134.285 E29.43961
G1 X49.321 Y134.03 E29.46411
G1 X48.781 Y133.879 E29.48859
G1 X48.221 Y133.833 E29.51312
G1 X47.665 Y133.899 E29.53756
G1 X47.129 Y134.072 E29.56215
G1 X47.026 Y134.131 E29.56733
G1 X46.765 Y134.279 E29.58043
G1 X46.765 Y133.979 E29.58787
G1 X46.766 Y65.883 E32.56053
G1 X46.766 Y65.881 E32.56062
G1 X46.766 Y65.598 E32.57297
G1 X47.019 Y65.727 E32.58008
G1 X47.23 Y65.835 E32.59042
G1 X47.77 Y65.987 E32.61491
G1 X48.328 Y66.033 E32.63936
G1 X48.886 Y65.967 E32.66388
G1 X49.42 Y65.795 E32.68837
G1 X49.91 Y65.522 E32.71286
G1 X50.337 Y65.159 E32.73733
G1 X50.687 Y64.721 E32.7618
G1 X50.945 Y64.222 E32.78632
G1 X51.101 Y63.683 E32.81082
G1 X51.149 Y63.126 E32.83522
G1 X51.087 Y62.568 E32.85973
G1 X50.936 Y62.083 E32.88191
G1 X50.918 Y62.025 E32.88388
G0 F3600 X50.228 Y61.558
;TYPE:WALL-OUTER
G1 F2400 X50.077 Y61.415 E32.89296
G1 X50.228 Y61.415 E32.89375
G1 X50.411 Y61.415 E32.90174
G1 X149.634 Y61.415 E37.23321
G1 X149.998 Y61.415 E37.2491
G1 X150.024 Y61.415 E37.25024
G1 X149.998 Y61.434 E37.25047
G1 X149.759 Y61.708 E37.2595
G1 X149.638 Y61.846 E37.26751
G1 X149.373 Y62.327 E37.29148
G1 X149.225 Y62.847 E37.31508
G1 X149.185 Y63.34 E37.33668
G1 X149.243 Y63.831 E37.35826
G1 X149.395 Y64.302 E37.37986
G1 X149.636 Y64.733 E37.40142
G1 X149.957 Y65.11 E37.42303
G1 X150.345 Y65.416 E37.44461
G1 X150.785 Y65.641 E37.46618
G1 X151.261 Y65.775 E37.48777
G1 X151.754 Y65.815 E37.50936
G1 X152.244 Y65.757 E37.5309
G1 X152.675 Y65.626 E37.55056
G1 X153.147 Y65.365 E37.57411
G1 X153.287 Y65.245 E37.58216
G1 X153.529 Y65.038 E37.59606
G1 X153.585 Y64.963 E37.60015
G1 X153.585 Y65.038 E37.60021
G1 X153.585 Y65.357 E37.60883
G1 X153.585 Y134.631 E40.63292
G1 X153.585 Y134.632 E40.63296
G1 X153.585 Y135.033 E40.65046
G1 X153.291 Y134.759 E40.65996
G1 X153.176 Y134.652 E40.66682
G1 X152.673 Y134.373 E40.69193
G1 X152.153 Y134.225 E40.71553
G1 X151.66 Y134.185 E40.73712
G1 X151.169 Y134.243 E40.7587
G1 X150.698 Y134.395 E40.78031
G1 X150.267 Y134.636 E40.80186
G1 X149.89 Y134.957 E40.82348
G1 X149.584 Y135.345 E40.84505
G1 X149.359 Y135.785 E40.86662
G1 X149.225 Y136.261 E40.88821
G1 X149.185 Y136.754 E40.9098
G1 X149.243 Y137.244 E40.93134
G1 X149.374 Y137.675 E40.95101
G1 X149.636 Y138.148 E40.97461
G1 X149.765 Y138.295 E40.98315
G1 X150.02 Y138.585 E41.00001
G1 X149.634 Y138.585 E41.00918
G1 X50.347 Y138.585 E45.34345
G1 X49.995 Y138.585 E45.35882
G1 X49.954 Y138.586 E45.36061
G1 X49.994 Y138.557 E45.36095
G1 X50.224 Y138.291 E45.36987
G1 X50.348 Y138.148 E45.37813
G1 X50.617 Y137.654 E45.40269
G1 X50.761 Y137.134 E45.42624
G1 X50.797 Y136.641 E45.44782
G1 X50.736 Y136.153 E45.46929
G1 X50.582 Y135.685 E45.4908
G1 X50.339 Y135.257 E45.51228
G1 X50.019 Y134.885 E45.53371
G1 X49.632 Y134.581 E45.55519
G1 X49.193 Y134.358 E45.57668
G1 X48.719 Y134.225 E45.59817
G1 X48.228 Y134.185 E45.61968
G1 X47.74 Y134.243 E45.64113
G1 X47.27 Y134.394 E45.66268
G1 X46.801 Y134.66 E45.68622
G1 X46.707 Y134.745 E45.69175
G1 X46.415 Y135.009 E45.70894
G1 X46.415 Y134.616 E45.71826
G1 X46.415 Y134.615 E45.7183
G1 X46.416 Y65.24 E48.74679
G1 X46.416 Y65.239 E48.74684
G1 X46.416 Y64.85 E48.76382
G1 X46.707 Y65.109 E48.77306
G1 X46.88 Y65.263 E48.78317
G1 X47.358 Y65.508 E48.80662
G1 X47.832 Y65.641 E48.82811
G1 X48.322 Y65.681 E48.84957
G1 X48.811 Y65.623 E48.87107
G1 X49.28 Y65.472 E48.89258
G1 X49.71 Y65.233 E48.91406
G1 X50.085 Y64.914 E48.93555
G1 X50.392 Y64.53 E48.95701
G1 X50.618 Y64.092 E48.97852
G1 X50.755 Y63.619 E49.00002
G1 X50.797 Y63.13 E49.02145
G1 X50.743 Y62.64 E49.04297
G1 X50.596 Y62.169 E49.06451
G1 X50.322 Y61.714 E49.08769
G1 X50.228 Y61.558 E49.0936
G0 F3600 X50.101 Y61.438
G1 F1500 E42.5936
G0 F3600 X50.221 Y61.465
G0 X48.085 Y61.489
G0 X47.376 Y61.718
G0 X46.767 Y62.221
G0 X46.851 Y62.274
G1 F1500 E49.0936
G1 F2400 X46.761 Y62.5 E49.10421
G1 X46.637 Y62.812 E49.11887
G1 X46.599 Y63.158 E49.13407
G1 X46.632 Y63.492 E49.14872
G1 X46.761 Y63.823 E49.16423
G1 X46.782 Y63.877 E49.16675
G1 X46.633 Y63.969 E49.1744
G1 X46.416 Y64.104 E49.18556
G1 X46.416 Y63.849 E49.19182
G1 X46.416 Y63.848 E49.19186
G1 X46.416 Y63.492 E49.20448
G1 X46.416 Y63.158 E49.21279
G1 X46.416 Y62.812 E49.2215
G1 X46.416 Y62.476 E49.23352
G1 X46.416 Y62.03 E49.25299
G1 X46.526 Y61.706 E49.26793
G1 X46.724 Y61.516 E49.27991
G1 X47.028 Y61.416 E49.29388
G1 X47.351 Y61.416 E49.30798
G1 X47.63 Y61.416 E49.32016
G1 X48.1 Y61.416 E49.34067
G1 X48.1 Y61.501 E49.34438
G1 X47.63 Y61.611 E49.35305
G1 X47.391 Y61.754 E49.36261
G1 X47.215 Y61.86 E49.37158
G1 X46.851 Y62.274 E49.39564
G0 F3600 X46.787 Y62.436
G1 F1500 E42.89564
G0 F3600 X46.696 Y62.398
G0 X46.425 Y64.087
G0 X47.286 Y64.532
G0 X47.569 Y135.102
G0 X47.578 Y137.157
G0 X46.823 Y137.586
G0 X47.375 Y138.239
G0 X47.425 Y138.152
G1 F1500 E49.39564
G1 F2400 X47.65 Y138.238 E49.40616
G1 X47.942 Y138.35 E49.41981
G1 X48.1 Y138.366 E49.42674
G1 X48.1 Y138.584 E49.43626
G1 X47.942 Y138.584 E49.44071
G1 X47.629 Y138.584 E49.45215
G1 X47.028 Y138.584 E49.47839
G1 X46.724 Y138.484 E49.49236
G1 X46.528 Y138.296 E49.50421
G1 X46.416 Y137.933 E49.5208
G1 X46.414 Y137.611 E49.53485
G1 X46.414 Y137.391 E49.54446
G1 X46.414 Y137.041 E49.55974
G1 X46.414 Y136.706 E49.57436
G1 X46.414 Y136.361 E49.58942
G1 X46.414 Y136.024 E49.60413
G1 X46.415 Y135.761 E49.61561
G1 X46.639 Y135.899 E49.6221
G1 X46.783 Y135.989 E49.62951
G1 X46.76 Y136.047 E49.63223
G1 X46.637 Y136.361 E49.64433
G1 X46.599 Y136.706 E49.65319
G1 X46.632 Y137.041 E49.66167
G1 X46.759 Y137.367 E49.67411
G1 X46.841 Y137.576 E49.68391
G1 X47.091 Y137.893 E49.70153
G1 X47.425 Y138.152 E49.71998
G0 F3600 X47.589 Y138.214
G1 F1500 E43.21998
G0 F3600 X47.553 Y138.308
G0 X50.011 Y138.566
G0 X51.266 Y137.896
;TYPE:SKIN
G1 F1500 E49.71998
G1 F2400 X51.444 Y137.252 E49.74915
G1 X51.491 Y136.623 E49.77669
G1 X51.413 Y136.001 E49.80405
G1 X51.217 Y135.404 E49.83148
G1 X50.906 Y134.858 E49.85891
G1 X50.498 Y134.384 E49.88621
G1 X50.005 Y133.997 E49.91357
G1 X49.445 Y133.712 E49.941
G1 X48.841 Y133.543 E49.96838
G1 X48.215 Y133.491 E49.9958
G1 X47.592 Y133.565 E50.02319
G1 X47.105 Y133.722 E50.04553
G1 X47.106 Y66.153 E52.99518
G1 X47.71 Y66.323 E53.02257
G1 X48.334 Y66.375 E53.04991
G1 X48.958 Y66.301 E53.07734
G1 X49.556 Y66.108 E53.10477
G1 X50.105 Y65.802 E53.13221
G1 X50.582 Y65.397 E53.15952
G1 X50.974 Y64.907 E53.18691
G1 X51.262 Y64.348 E53.21437
G1 X51.437 Y63.745 E53.24178
G1 X51.491 Y63.122 E53.26907
G1 X51.421 Y62.498 E53.29648
G1 X51.299 Y62.105 E53.31445
G1 X148.718 Y62.105 E57.56717
G1 X148.543 Y62.723 E57.59521
G1 X148.491 Y63.352 E57.62276
G1 X148.565 Y63.979 E57.65032
G1 X148.76 Y64.579 E57.67786
G1 X149.067 Y65.129 E57.70536
G1 X149.476 Y65.609 E57.73289
G1 X149.971 Y66 E57.76043
G1 X150.533 Y66.286 E57.78795
G1 X151.139 Y66.457 E57.81544
G1 X151.766 Y66.509 E57.84291
G1 X152.386 Y66.435 E57.87016
G1 X152.895 Y66.28 E57.89339
G1 X152.895 Y133.718 E60.83732
G1 X152.277 Y133.543 E60.86536
G1 X151.648 Y133.491 E60.89291
G1 X151.021 Y133.565 E60.92048
G1 X150.421 Y133.76 E60.94802
G1 X149.871 Y134.067 E60.97551
G1 X149.391 Y134.476 E61.00304
G1 X149 Y134.971 E61.03058
G1 X148.714 Y135.533 E61.05811
G1 X148.543 Y136.139 E61.08559
G1 X148.491 Y136.766 E61.11306
G1 X148.565 Y137.386 E61.14032
G1 X148.72 Y137.895 E61.16354
G1 X51.266 Y137.896 E65.41779
G0 F3600 X51.502 Y137.627
G1 F2400 X51.612 Y137.738 E65.42462
G0 F3600 X52.107 Y137.738
G1 F2400 X51.601 Y137.232 E65.45585
G0 F3600 X51.636 Y136.772
G1 F2400 X52.602 Y137.738 E65.51549
G0 F3600 X53.097 Y137.738
G1 F2400 X51.601 Y136.242 E65.60785
G0 F3600 X51.444 Y135.589
G1 F2400 X53.592 Y137.738 E65.74049
G0 F3600 X54.087 Y137.738
G1 F2400 X47.262 Y130.913 E66.16184
G0 F3600 X47.262 Y130.418
G1 F2400 X54.582 Y137.738 E66.61374
G0 F3600 X55.077 Y137.738
G1 F2400 X47.262 Y129.923 E67.09621
G0 F3600 X47.262 Y129.428
G1 F2400 X55.572 Y137.738 E67.60924
G0 F3600 X56.067 Y137.738
G1 F2400 X47.262 Y128.933 E68.15282
G0 F3600 X47.262 Y128.438
G1 F2400 X56.562 Y137.738 E68.72697
G0 F3600 X57.057 Y137.738
G1 F2400 X47.262 Y127.943 E69.33167
G0 F3600 X47.262 Y127.448
G1 F2400 X57.552 Y137.738 E69.96693
G0 F3600 X58.047 Y137.738
G1 F2400 X47.262 Y126.953 E70.63275
G0 F3600 X47.262 Y126.458
G1 F2400 X58.542 Y137.738 E71.32914
G0 F3600 X59.037 Y137.738
G1 F2400 X47.262 Y125.963 E72.05608
G0 F3600 X47.262 Y125.468
G1 F2400 X59.532 Y137.738 E72.81358
G0 F3600 X60.027 Y137.738
G1 F2400 X47.262 Y124.973 E73.60164
G0 F3600 X47.262 Y124.478
G1 F2400 X60.521 Y137.738 E74.42023
G0 F3600 X61.016 Y137.738
G1 F2400 X47.262 Y123.983 E75.26937
G0 F3600 X47.262 Y123.488
G1 F2400 X61.511 Y137.738 E76.14908
G0 F3600 X62.006 Y137.738
G1 F2400 X47.262 Y122.993 E77.05935
G0 F3600 X47.262 Y122.498
G1 F2400 X62.501 Y137.738 E78.00017
G0 F3600 X62.996 Y137.738
G1 F2400 X47.262 Y122.003 E78.97156
G0 F3600 X47.262 Y121.508
G1 F2400 X63.491 Y137.738 E79.9735
G0 F3600 X63.986 Y137.738
G1 F2400 X47.262 Y121.013 E81.006
G0 F3600 X47.262 Y120.518
G1 F2400 X64.481 Y137.738 E82.06907
G0 F3600 X64.976 Y137.738
G1 F2400 X47.262 Y120.023 E83.16269
G0 F3600 X47.262 Y119.528
G1 F2400 X65.471 Y137.738 E84.28687
G0 F3600 X65.966 Y137.738
G1 F2400 X47.262 Y119.033 E85.44161
G0 F3600 X47.262 Y118.538
G1 F2400 X66.461 Y137.738 E86.62691
G0 F3600 X66.956 Y137.738
G1 F2400 X47.262 Y118.043 E87.84277
G0 F3600 X47.262 Y117.548
G1 F2400 X67.451 Y137.738 E89.08919
G0 F3600 X67.946 Y137.738
G1 F2400 X47.262 Y117.053 E90.36617
G0 F3600 X47.262 Y116.558
G1 F2400 X68.441 Y137.738 E91.6737
G0 F3600 X68.936 Y137.738
G1 F2400 X47.262 Y116.063 E93.0118
G0 F3600 X47.262 Y115.568
G1 F2400 X69.431 Y137.738 E94.38046
G0 F3600 X69.926 Y137.738
G1 F2400 X47.262 Y115.073 E95.77967
G0 F3600 X47.262 Y114.578
G1 F2400 X70.421 Y137.738 E97.20944
G0 F3600 X70.916 Y137.738
G1 F2400 X47.262 Y114.083 E98.66978
G0 F3600 X47.262 Y113.588
G1 F2400 X71.411 Y137.738 E100.16067
G0 F3600 X71.906 Y137.738
G1 F2400 X47.262 Y113.093 E101.68212
G0 F3600 X47.262 Y112.598
G1 F2400 X72.401 Y137.738 E103.23413
G0 F3600 X72.896 Y137.738
G1 F2400 X47.262 Y112.104 E104.81667
G0 F3600 X47.262 Y111.609
G1 F2400 X73.391 Y137.738 E106.42977
G0 F3600 X73.886 Y137.738
G1 F2400 X47.262 Y111.114 E108.07343
G0 F3600 X47.262 Y110.619
G1 F2400 X74.381 Y137.738 E109.74765
G0 F3600 X74.876 Y137.738
G1 F2400 X47.262 Y110.124 E111.45243
G0 F3600 X47.262 Y109.629
G1 F2400 X75.371 Y137.738 E113.18776
G0 F3600 X75.866 Y137.738
G1 F2400 X47.262 Y109.134 E114.95366
G0 F3600 X47.262 Y108.639
G1 F2400 X76.361 Y137.738 E116.75012
G0 F3600 X76.856 Y137.738
G1 F2400 X47.262 Y108.144 E118.57713
G0 F3600 X47.262 Y107.649
G1 F2400 X77.351 Y137.738 E120.4347
G0 F3600 X77.846 Y137.738
G1 F2400 X47.262 Y107.154 E122.32284
G0 F3600 X47.262 Y106.659
G1 F2400 X78.341 Y137.738 E124.24153
G0 F3600 X78.836 Y137.738
G1 F2400 X47.262 Y106.164 E126.19078
G0 F3600 X47.262 Y105.669
G1 F2400 X79.331 Y137.738 E128.17059
G0 F3600 X79.825 Y137.738
G1 F2400 X47.262 Y105.174 E130.18093
G0 F3600 X47.262 Y104.679
G1 F2400 X80.32 Y137.738 E132.22183
G0 F3600 X80.815 Y137.738
G1 F2400 X47.262 Y104.184 E134.29329
G0 F3600 X47.262 Y103.689
G1 F2400 X81.31 Y137.738 E136.39531
G0 F3600 X81.805 Y137.738
G1 F2400 X47.262 Y103.194 E138.52788
G0 F3600 X47.262 Y102.699
G1 F2400 X82.3 Y137.738 E140.69102
G0 F3600 X82.795 Y137.738
G1 F2400 X47.262 Y102.204 E142.88471
G0 F3600 X47.262 Y101.709
G1 F2400 X83.29 Y137.738 E145.10897
G0 F3600 X83.785 Y137.738
G1 F2400 X47.262 Y101.214 E147.36378
G0 F3600 X47.262 Y100.719
G1 F2400 X84.28 Y137.738 E149.64916
G0 F3600 X84.775 Y137.738
G1 F2400 X47.262 Y100.224 E151.96509
G0 F3600 X47.262 Y99.729
G1 F2400 X85.27 Y137.738 E154.31158
G0 F3600 X85.765 Y137.738
G1 F2400 X47.262 Y99.234 E156.68863
G0 F3600 X47.262 Y98.739
G1 F2400 X86.26 Y137.738 E159.09624
G0 F3600 X86.755 Y137.738
