;FLAVOR:Marlin
;TIME:7249
;Filament used: 12.1727m
;Layer height: 0.3
;MINX:43.066
;MINY:58.066
;MINZ:0.3
;MAXX:156.934
;MAXY:141.934
;MAXZ:19.8
;Generated with Cura_SteamEngine 4.8.0
M140 S60
M105
M190 S60
M82 ;absolute extrusion mode
M104 T0 S220
G28 ;Home extruder
G90 ;Absolute positioning
M82 ;Extruder in absolute mode
G1 Z1 F100
G92 E0 ;Reset extruder position
M109 T0 S220
G1 E20 F100
G92 E0 ;Reset extruder position
G92 E0
G92 E0
G1 F1500 E-6.5
;LAYER_COUNT:66
;LAYER:0
M107
G0 F3600 X44.852 Y58.744 Z0.3
;TYPE:SKIRT
G1 F1500 E0
G1 F2400 X45.29 Y58.495 E0.02199
G1 X45.796 Y58.301 E0.04565
G1 X46.032 Y58.227 E0.05645
G1 X46.523 Y58.115 E0.07843
G1 X46.926 Y58.082 E0.09608
G1 X47.84 Y58.066 E0.13599
G1 X152.339 Y58.066 E4.69778
G1 X153.03 Y58.076 E4.72795
G1 X153.531 Y58.124 E4.74992
G1 X154.219 Y58.309 E4.78102
G1 X154.687 Y58.494 E4.80299
G1 X155.06 Y58.705 E4.8217
G1 X155.47 Y58.997 E4.84367
G1 X155.85 Y59.358 E4.86655
G1 X156.179 Y59.739 E4.88853
G1 X156.443 Y60.168 E4.91052
G1 X156.66 Y60.693 E4.93531
G1 X156.771 Y61.03 E4.9508
G1 X156.886 Y61.52 E4.97277
G1 X156.931 Y62.216 E5.00322
G1 X156.934 Y137.302 E8.28102
G1 X156.924 Y138.03 E8.3128
G1 X156.877 Y138.531 E8.33477
G1 X156.695 Y139.206 E8.36529
G1 X156.44 Y139.804 E8.39367
G1 X156.352 Y139.963 E8.4016
G1 X156.074 Y140.383 E8.42359
G1 X155.641 Y140.851 E8.45142
G1 X155.259 Y141.18 E8.47343
G1 X154.831 Y141.444 E8.49538
G1 X154.296 Y141.664 E8.52063
G1 X153.98 Y141.768 E8.53516
G1 X153.49 Y141.885 E8.55715
G1 X152.671 Y141.932 E8.59296
G1 X47.662 Y141.934 E13.17701
G1 X46.973 Y141.924 E13.2071
G1 X46.472 Y141.876 E13.22907
G1 X45.699 Y141.663 E13.26407
G1 X45.232 Y141.474 E13.28606
G1 X44.675 Y141.119 E13.3149
G1 X44.162 Y140.654 E13.34512
G1 X43.831 Y140.274 E13.36712
G1 X43.565 Y139.847 E13.38908
G1 X43.315 Y139.238 E13.41782
G1 X43.228 Y138.967 E13.43024
G1 X43.113 Y138.477 E13.45222
G1 X43.069 Y137.826 E13.4807
G1 X43.067 Y137.722 E13.48524
G1 X43.066 Y62.621 E16.76369
G1 X43.077 Y61.947 E16.79312
G1 X43.126 Y61.446 E16.8151
G1 X43.254 Y60.946 E16.83763
G1 X43.393 Y60.546 E16.85611
G1 X43.6 Y60.087 E16.87809
G1 X43.877 Y59.666 E16.90009
G1 X44.272 Y59.236 E16.92558
G1 X44.46 Y59.059 E16.93685
G1 X44.852 Y58.744 E16.95881
G1 F1500 E10.45881
;MESH:v6_base.stl
G0 F3600 X46.707 Y60.638
G0 X47.085 Y61.785
G0 X153.039 Y61.907
G0 X153.09 Y61.822
;TYPE:WALL-INNER
G1 F1500 E16.95881
G1 F2400 X153.169 Y61.899 E16.96362
G1 X153.233 Y62.086 E16.97225
G1 X153.234 Y137.918 E20.28261
G1 X153.178 Y138.09 E20.29051
G1 X153.101 Y138.169 E20.29533
G1 X152.914 Y138.233 E20.30395
G1 X47.082 Y138.234 E24.92394
G1 X46.91 Y138.177 E24.93185
G1 X46.83 Y138.1 E24.93669
G1 X46.766 Y137.913 E24.94532
G1 X46.766 Y62.087 E28.25542
G1 X46.83 Y61.9 E28.26405
G1 X46.91 Y61.823 E28.2689
G1 X47.082 Y61.766 E28.27681
G1 X152.918 Y61.766 E32.89697
G1 X153.09 Y61.822 E32.90486
G0 F3600 X153.275 Y61.514
;TYPE:WALL-OUTER
G1 F2400 X153.473 Y61.706 E32.9169
G1 X153.583 Y62.029 E32.9318
G1 X153.584 Y137.974 E36.2471
G1 X153.486 Y138.275 E36.26092
G1 X153.294 Y138.473 E36.27296
G1 X152.971 Y138.583 E36.28785
G1 X47.028 Y138.584 E40.91268
G1 X46.724 Y138.484 E40.92665
G1 X46.526 Y138.294 E40.93863
G1 X46.416 Y137.97 E40.95357
G1 X46.416 Y62.03 E44.26864
G1 X46.526 Y61.706 E44.28358
G1 X46.724 Y61.516 E44.29556
G1 X47.028 Y61.416 E44.30953
G1 X152.974 Y61.416 E48.93449
G1 X153.275 Y61.514 E48.94831
G0 F3600 X153.401 Y61.636
G0 X152.866 Y62.106
;TYPE:SKIN
G1 F2400 X152.893 Y62.144 E48.95034
G1 X152.894 Y137.866 E52.25591
G1 X152.856 Y137.893 E52.25794
G1 X47.138 Y137.894 E56.87295
G1 X47.106 Y137.855 E56.87515
G1 X47.106 Y62.145 E60.18019
G1 X47.138 Y62.106 E60.18239
G1 X152.866 Y62.106 E64.79783
G0 F3600 X152.736 Y62.651
G1 F2400 X152.348 Y62.262 E64.82182
G0 F3600 X151.853 Y62.262
G1 F2400 X152.736 Y63.146 E64.87636
G0 F3600 X152.736 Y63.641
G1 F2400 X151.358 Y62.262 E64.96146
G0 F3600 X150.863 Y62.262
G1 F2400 X152.736 Y64.135 E65.0771
G0 F3600 X152.736 Y64.63
G1 F2400 X150.368 Y62.262 E65.22329
G0 F3600 X149.873 Y62.262
G1 F2400 X152.736 Y65.125 E65.40004
G0 F3600 X152.736 Y65.62
G1 F2400 X149.378 Y62.262 E65.60735
G0 F3600 X148.883 Y62.262
G1 F2400 X152.736 Y66.115 E65.84521
G0 F3600 X152.736 Y66.61
G1 F2400 X148.388 Y62.262 E66.11364
G0 F3600 X147.893 Y62.262
G1 F2400 X152.736 Y67.105 E66.41263
G0 F3600 X152.736 Y67.6
G1 F2400 X147.398 Y62.262 E66.74218
G0 F3600 X146.903 Y62.262
G1 F2400 X152.736 Y68.095 E67.10228
G0 F3600 X152.736 Y68.59
G1 F2400 X146.408 Y62.262 E67.49295
G0 F3600 X145.913 Y62.262
G1 F2400 X152.736 Y69.085 E67.91417
G0 F3600 X152.736 Y69.58
G1 F2400 X145.418 Y62.262 E68.36596
G0 F3600 X144.923 Y62.262
G1 F2400 X152.736 Y70.075 E68.8483
G0 F3600 X152.736 Y70.57
G1 F2400 X144.428 Y62.262 E69.3612
G0 F3600 X143.933 Y62.262
G1 F2400 X152.736 Y71.065 E69.90466
G0 F3600 X152.736 Y71.56
G1 F2400 X143.438 Y62.262 E70.47868
G0 F3600 X142.943 Y62.262
G1 F2400 X152.736 Y72.055 E71.08327
G0 F3600 X152.736 Y72.55
G1 F2400 X142.448 Y62.262 E71.7184
G0 F3600 X141.953 Y62.262
G1 F2400 X152.736 Y73.045 E72.3841
G0 F3600 X152.736 Y73.54
G1 F2400 X141.458 Y62.262 E73.08036
G0 F3600 X140.963 Y62.262
G1 F2400 X152.736 Y74.035 E73.80718
G0 F3600 X152.736 Y74.53
G1 F2400 X140.468 Y62.262 E74.56456
G0 F3600 X139.973 Y62.262
G1 F2400 X152.736 Y75.025 E75.35249
G0 F3600 X152.736 Y75.52
G1 F2400 X139.478 Y62.262 E76.17099
G0 F3600 X138.983 Y62.262
G1 F2400 X152.736 Y76.015 E77.02004
G0 F3600 X152.736 Y76.51
G1 F2400 X138.488 Y62.262 E77.89966
G0 F3600 X137.994 Y62.262
G1 F2400 X152.736 Y77.005 E78.8098
G0 F3600 X152.736 Y77.5
G1 F2400 X137.499 Y62.262 E79.7505
G0 F3600 X137.004 Y62.262
G1 F2400 X152.736 Y77.995 E80.72176
G0 F3600 X152.736 Y78.49
G1 F2400 X136.509 Y62.262 E81.72358
G0 F3600 X136.014 Y62.262
G1 F2400 X152.736 Y78.985 E82.75596
G0 F3600 X152.736 Y79.48
G1 F2400 X135.519 Y62.262 E83.8189
G0 F3600 X135.024 Y62.262
G1 F2400 X152.736 Y79.975 E84.9124
G0 F3600 X152.736 Y80.47
G1 F2400 X134.529 Y62.262 E86.03646
G0 F3600 X134.034 Y62.262
G1 F2400 X152.736 Y80.965 E87.19108
G0 F3600 X152.736 Y81.46
G1 F2400 X133.539 Y62.262 E88.37625
G0 F3600 X133.044 Y62.262
G1 F2400 X152.736 Y81.955 E89.59199
G0 F3600 X152.736 Y82.45
G1 F2400 X132.549 Y62.262 E90.83828
G0 F3600 X132.054 Y62.262
G1 F2400 X152.736 Y82.945 E92.11514
G0 F3600 X152.736 Y83.44
G1 F2400 X131.559 Y62.262 E93.42255
G0 F3600 X131.064 Y62.262
G1 F2400 X152.736 Y83.934 E94.76049
G0 F3600 X152.736 Y84.429
G1 F2400 X130.569 Y62.262 E96.12899
G0 F3600 X130.074 Y62.262
G1 F2400 X152.736 Y84.924 E97.52806
G0 F3600 X152.736 Y85.419
G1 F2400 X129.579 Y62.262 E98.95768
G0 F3600 X129.084 Y62.262
G1 F2400 X152.736 Y85.914 E100.41785
G0 F3600 X152.736 Y86.409
G1 F2400 X128.589 Y62.262 E101.90859
G0 F3600 X128.094 Y62.262
G1 F2400 X152.736 Y86.904 E103.42989
G0 F3600 X152.736 Y87.399
G1 F2400 X127.599 Y62.262 E104.98175
G0 F3600 X127.104 Y62.262
G1 F2400 X152.736 Y87.894 E106.56417
G0 F3600 X152.736 Y88.389
G1 F2400 X126.609 Y62.262 E108.17714
G0 F3600 X126.114 Y62.262
G1 F2400 X152.736 Y88.884 E109.82068
G0 F3600 X152.736 Y89.379
G1 F2400 X125.619 Y62.262 E111.49477
G0 F3600 X125.124 Y62.262
G1 F2400 X152.736 Y89.874 E113.19942
G0 F3600 X152.736 Y90.369
G1 F2400 X124.629 Y62.262 E114.93464
G0 F3600 X124.134 Y62.262
G1 F2400 X152.736 Y90.864 E116.70041
G0 F3600 X152.736 Y91.359
G1 F2400 X123.639 Y62.262 E118.49674
G0 F3600 X123.144 Y62.262
G1 F2400 X152.736 Y91.854 E120.32363
G0 F3600 X152.736 Y92.349
G1 F2400 X122.649 Y62.262 E122.18108
G0 F3600 X122.154 Y62.262
G1 F2400 X152.736 Y92.844 E124.06909
G0 F3600 X152.736 Y93.339
G1 F2400 X121.659 Y62.262 E125.98766
G0 F3600 X121.164 Y62.262
G1 F2400 X152.736 Y93.834 E127.93679
G0 F3600 X152.736 Y94.329
G1 F2400 X120.669 Y62.262 E129.91648
G0 F3600 X120.174 Y62.262
G1 F2400 X152.736 Y94.824 E131.92672
G0 F3600 X152.736 Y95.319
G1 F2400 X119.679 Y62.262 E133.96753
G0 F3600 X119.184 Y62.262
G1 F2400 X152.736 Y95.814 E136.0389
G0 F3600 X152.736 Y96.309
G1 F2400 X118.689 Y62.262 E138.14082
G0 F3600 X118.195 Y62.262
G1 F2400 X152.736 Y96.804 E140.27327
G0 F3600 X152.736 Y97.299
G1 F2400 X117.7 Y62.262 E142.43629
G0 F3600 X117.205 Y62.262
G1 F2400 X152.736 Y97.794 E144.62986
G0 F3600 X152.736 Y98.289
G1 F2400 X116.71 Y62.262 E146.85399
G0 F3600 X116.215 Y62.262
G1 F2400 X152.736 Y98.784 E149.10868
G0 F3600 X152.736 Y99.279
G1 F2400 X115.72 Y62.262 E151.39393
G0 F3600 X115.225 Y62.262
G1 F2400 X152.736 Y99.774 E153.70974
G0 F3600 X152.736 Y100.269
G1 F2400 X114.73 Y62.262 E156.05611
G0 F3600 X114.235 Y62.262
G1 F2400 X152.736 Y100.764 E158.43303
G0 F3600 X152.736 Y101.259
G1 F2400 X113.74 Y62.262 E160.84052
G0 F3600 X113.245 Y62.262
G1 F2400 X152.736 Y101.754 E163.27857
G0 F3600 X152.736 Y102.249
G1 F2400 X112.75 Y62.262 E165.74717
G0 F3600 X112.255 Y62.262
G1 F2400 X152.736 Y102.744 E168.24634
G0 F3600 X152.736 Y103.239
G1 F2400 X111.76 Y62.262 E170.77606
G0 F3600 X111.265 Y62.262
G1 F2400 X152.736 Y103.733 E173.33632
G0 F3600 X152.736 Y104.228
G1 F2400 X110.77 Y62.262 E175.92713
G0 F3600 X110.275 Y62.262
G1 F2400 X152.736 Y104.723 E178.5485
G0 F3600 X152.736 Y105.218
G1 F2400 X109.78 Y62.262 E181.20043
G0 F3600 X109.285 Y62.262
G1 F2400 X152.736 Y105.713 E183.88292
G0 F3600 X152.736 Y106.208
G1 F2400 X108.79 Y62.262 E186.59597
G0 F3600 X108.295 Y62.262
G1 F2400 X152.736 Y106.703 E189.33958
G0 F3600 X152.736 Y107.198
G1 F2400 X107.8 Y62.262 E192.11374
G0 F3600 X107.305 Y62.262
G1 F2400 X152.736 Y107.693 E194.91847
G0 F3600 X152.736 Y108.188
G1 F2400 X106.81 Y62.262 E197.75376
G0 F3600 X106.315 Y62.262
G1 F2400 X152.736 Y108.683 E200.6196
G0 F3600 X152.736 Y109.178
G1 F2400 X105.82 Y62.262 E203.51601
G0 F3600 X105.325 Y62.262
G1 F2400 X152.736 Y109.673 E206.44297
G0 F3600 X152.736 Y110.168
G1 F2400 X104.83 Y62.262 E209.4005
G0 F3600 X104.335 Y62.262
G1 F2400 X152.736 Y110.663 E212.38858
G0 F3600 X152.736 Y111.158
G1 F2400 X103.84 Y62.262 E215.40722
G0 F3600 X103.345 Y62.262
G1 F2400 X152.736 Y111.653 E218.45642
G0 F3600 X152.736 Y112.148
G1 F2400 X102.85 Y62.262 E221.53618
G0 F3600 X102.355 Y62.262
G1 F2400 X152.736 Y112.643 E224.6465
G0 F3600 X152.736 Y113.138
G1 F2400 X101.86 Y62.262 E227.78738
G0 F3600 X101.365 Y62.262
G1 F2400 X152.736 Y113.633 E230.95882
G0 F3600 X152.736 Y114.128
G1 F2400 X100.87 Y62.262 E234.16082
G0 F3600 X100.375 Y62.262
G1 F2400 X152.736 Y114.623 E237.39338
G0 F3600 X152.736 Y115.118
G1 F2400 X99.88 Y62.262 E240.6565
G0 F3600 X99.385 Y62.262
G1 F2400 X152.736 Y115.613 E243.95017
G0 F3600 X152.736 Y116.108
G1 F2400 X98.891 Y62.262 E247.27438
G0 F3600 X98.396 Y62.262
G1 F2400 X152.736 Y116.603 E250.62914
G0 F3600 X152.736 Y117.098
G1 F2400 X97.901 Y62.262 E254.01446
G0 F3600 X97.406 Y62.262
G1 F2400 X152.736 Y117.593 E257.43035
G0 F3600 X152.736 Y118.088
G1 F2400 X96.911 Y62.262 E260.87679
G0 F3600 X96.416 Y62.262
G1 F2400 X152.736 Y118.583 E264.35379
G0 F3600 X152.736 Y119.078
G1 F2400 X95.921 Y62.262 E267.86135
G0 F3600 X95.426 Y62.262
G1 F2400 X152.736 Y119.573 E271.39947
G0 F3600 X152.736 Y120.068
G1 F2400 X94.931 Y62.262 E274.96815
G0 F3600 X94.436 Y62.262
G1 F2400 X152.736 Y120.563 E278.56739
G0 F3600 X152.736 Y121.058
G1 F2400 X93.941 Y62.262 E282.19718
G0 F3600 X93.446 Y62.262
G1 F2400 X152.736 Y121.553 E285.85754
G0 F3600 X152.736 Y122.048
G1 F2400 X92.951 Y62.262 E289.54846
G0 F3600 X92.456 Y62.262
G1 F2400 X152.736 Y122.543 E293.26993
G0 F3600 X152.736 Y123.037
G1 F2400 X91.961 Y62.262 E297.02194
G0 F3600 X91.466 Y62.262
G1 F2400 X152.736 Y123.532 E300.8045
G0 F3600 X152.736 Y124.027
G1 F2400 X90.971 Y62.262 E304.61762
G0 F3600 X90.476 Y62.262
G1 F2400 X152.736 Y124.522 E308.4613
G0 F3600 X152.736 Y125.017
G1 F2400 X89.981 Y62.262 E312.33554
G0 F3600 X89.486 Y62.262
G1 F2400 X152.736 Y125.512 E316.24034
G0 F3600 X152.736 Y126.007
G1 F2400 X88.991 Y62.262 E320.1757
G0 F3600 X88.496 Y62.262
G1 F2400 X152.736 Y126.502 E324.14162
G0 F3600 X152.736 Y126.997
G1 F2400 X88.001 Y62.262 E328.1381
G0 F3600 X87.506 Y62.262
G1 F2400 X152.736 Y127.492 E332.16514
G0 F3600 X152.736 Y127.987
G1 F2400 X87.011 Y62.262 E336.22274
G0 F3600 X86.516 Y62.262
G1 F2400 X152.736 Y128.482 E340.31089
G0 F3600 X152.736 Y128.977
G1 F2400 X86.021 Y62.262 E344.42961
G0 F3600 X85.526 Y62.262
G1 F2400 X152.736 Y129.472 E348.57888
G0 F3600 X152.736 Y129.967
G1 F2400 X85.031 Y62.262 E352.75872
G0 F3600 X84.536 Y62.262
G1 F2400 X152.736 Y130.462 E356.96911
G0 F3600 X152.736 Y130.957
G1 F2400 X84.041 Y62.262 E361.21006
G0 F3600 X83.546 Y62.262
G1 F2400 X152.736 Y131.452 E365.48158
G0 F3600 X152.736 Y131.947
G1 F2400 X83.051 Y62.262 E369.78365
G0 F3600 X82.556 Y62.262
G1 F2400 X152.736 Y132.442 E374.11628
G0 F3600 X152.736 Y132.937
G1 F2400 X82.061 Y62.262 E378.47947
G0 F3600 X81.566 Y62.262
G1 F2400 X152.736 Y133.432 E382.87322
G0 F3600 X152.736 Y133.927
G1 F2400 X81.071 Y62.262 E387.29753
G0 F3600 X80.576 Y62.262
G1 F2400 X152.736 Y134.422 E391.75239
G0 F3600 X152.736 Y134.917
G1 F2400 X80.081 Y62.262 E396.23782
G0 F3600 X79.586 Y62.262
G1 F2400 X152.736 Y135.412 E400.75381
G0 F3600 X152.736 Y135.907
G1 F2400 X79.092 Y62.262 E405.30032
G0 F3600 X78.597 Y62.262
G1 F2400 X152.736 Y136.402 E409.8774
G0 F3600 X152.736 Y136.897
G1 F2400 X78.102 Y62.262 E414.48503
G0 F3600 X77.607 Y62.262
G1 F2400 X152.736 Y137.392 E419.12323
G0 F3600 X152.585 Y137.735
G1 F2400 X77.112 Y62.262 E423.78262
G0 F3600 X76.617 Y62.262
G1 F2400 X152.09 Y137.735 E428.44202
G0 F3600 X151.595 Y137.735
G1 F2400 X76.122 Y62.262 E433.10142
G0 F3600 X75.627 Y62.262
G1 F2400 X151.1 Y137.735 E437.76082
G0 F3600 X150.605 Y137.735
G1 F2400 X75.132 Y62.262 E442.42022
G0 F3600 X74.637 Y62.262
G1 F2400 X150.11 Y137.735 E447.07962
G0 F3600 X149.615 Y137.735
G1 F2400 X74.142 Y62.262 E451.73902
G0 F3600 X73.647 Y62.262
G1 F2400 X149.12 Y137.735 E456.39842
G0 F3600 X148.625 Y137.735
G1 F2400 X73.152 Y62.262 E461.05782
G0 F3600 X72.657 Y62.262
G1 F2400 X148.13 Y137.735 E465.71722
G0 F3600 X147.635 Y137.735
G1 F2400 X72.162 Y62.262 E470.37662
G0 F3600 X71.667 Y62.262
G1 F2400 X147.14 Y137.735 E475.03602
G0 F3600 X146.645 Y137.735
G1 F2400 X71.172 Y62.262 E479.69542
G0 F3600 X70.677 Y62.262
G1 F2400 X146.15 Y137.735 E484.35482
G0 F3600 X145.655 Y137.735
G1 F2400 X70.182 Y62.262 E489.01421
G0 F3600 X69.687 Y62.262
G1 F2400 X145.16 Y137.735 E493.67361
G0 F3600 X144.665 Y137.735
G1 F2400 X69.192 Y62.262 E498.33301
G0 F3600 X68.697 Y62.262
G1 F2400 X144.17 Y137.735 E502.99241
G0 F3600 X143.675 Y137.735
G1 F2400 X68.202 Y62.262 E507.65181
G0 F3600 X67.707 Y62.262
G1 F2400 X143.18 Y137.735 E512.31121
G0 F3600 X142.685 Y137.735
G1 F2400 X67.212 Y62.262 E516.97061
G0 F3600 X66.717 Y62.262
G1 F2400 X142.19 Y137.735 E521.63001
G0 F3600 X141.695 Y137.735
G1 F2400 X66.222 Y62.262 E526.28941
G0 F3600 X65.727 Y62.262
G1 F2400 X141.2 Y137.735 E530.94881
G0 F3600 X140.705 Y137.735
G1 F2400 X65.232 Y62.262 E535.60821
G0 F3600 X64.737 Y62.262
G1 F2400 X140.21 Y137.735 E540.26761
G0 F3600 X139.715 Y137.735
G1 F2400 X64.242 Y62.262 E544.92701
G0 F3600 X63.747 Y62.262
G1 F2400 X139.22 Y137.735 E549.58641
G0 F3600 X138.725 Y137.735
G1 F2400 X63.252 Y62.262 E554.24581
G0 F3600 X62.757 Y62.262
G1 F2400 X138.23 Y137.735 E558.9052
G0 F3600 X137.735 Y137.735
G1 F2400 X62.262 Y62.262 E563.5646
G0 F3600 X61.767 Y62.262
G1 F2400 X137.24 Y137.735 E568.224
G0 F3600 X136.745 Y137.735
G1 F2400 X61.272 Y62.262 E572.8834
G0 F3600 X60.777 Y62.262
G1 F2400 X136.25 Y137.735 E577.5428
G0 F3600 X135.756 Y137.735
G1 F2400 X60.282 Y62.262 E582.20223
G0 F3600 X59.787 Y62.262
G1 F2400 X135.261 Y137.735 E586.86166
G0 F3600 X134.766 Y137.735
G1 F2400 X59.293 Y62.262 E591.52106
G0 F3600 X58.798 Y62.262
G1 F2400 X134.271 Y137.735 E596.18046
G0 F3600 X133.776 Y137.735
G1 F2400 X58.303 Y62.262 E600.83986
G0 F3600 X57.808 Y62.262
G1 F2400 X133.281 Y137.735 E605.49926
G0 F3600 X132.786 Y137.735
G1 F2400 X57.313 Y62.262 E610.15866
G0 F3600 X56.818 Y62.262
G1 F2400 X132.291 Y137.735 E614.81806
G0 F3600 X131.796 Y137.735
G1 F2400 X56.323 Y62.262 E619.47746
G0 F3600 X55.828 Y62.262
G1 F2400 X131.301 Y137.735 E624.13686
G0 F3600 X130.806 Y137.735
G1 F2400 X55.333 Y62.262 E628.79626
